;FLAVOR:RepRap
;TIME:3245
;Filament used: 2.60913m
;Layer height: 0.2
;Generated with Cura_SteamEngine 2.5.0-twosilly
M190 S50
M104 S220
M109 S220
G28 ;Home
G1 Z15.0 F6000 ;Move the platform down 15mm
;Prime the extruder
G92 E0
G1 F200 E10
G92 E0
;LAYER_COUNT:40
;LAYER:0
M107
G0 F2700 X102.289 Y69.05 Z0.3
;TYPE:SKIRT
G1 F1200 X102.708 Y68.428 E0.03844
G1 X103.029 Y68.005 E0.06566
G1 X103.499 Y67.451 E0.1029
G1 X103.977 Y66.996 E0.13673
G1 X104.536 Y66.514 E0.17456
G1 X105.111 Y66.071 E0.21177
G1 X105.732 Y65.694 E0.24901
G1 X106.107 Y65.508 E0.27046
G1 X113.025 Y62.353 E0.6602
G1 X117.685 Y59.887 E0.93045
G1 X122.817 Y56.77 E1.23823
G1 X123.457 Y56.428 E1.27543
G1 X124.132 Y56.158 E1.31269
G1 X124.832 Y55.964 E1.34992
G1 X125.549 Y55.848 E1.38715
G1 X126.596 Y55.82 E1.44084
G1 X130.366 Y56.022 E1.63436
G1 X131.088 Y56.101 E1.67159
G1 X131.747 Y56.245 E1.70617
G1 X135.261 Y57.202 E1.89285
G1 X139.092 Y58.102 E2.09457
G1 X139.337 Y58.152 E2.10738
G1 X140.04 Y58.337 E2.14465
G1 X140.488 Y58.499 E2.16907
G1 X146.743 Y61.032 E2.51498
G1 X149.097 Y61.856 E2.64282
G1 X154.19 Y63.402 E2.91564
G1 X159.351 Y64.657 E3.1879
G1 X162.76 Y65.319 E3.3659
G1 X163.464 Y65.497 E3.40312
G1 X164.144 Y65.751 E3.44033
G1 X164.793 Y66.078 E3.47758
G1 X165.402 Y66.474 E3.51482
G1 X165.963 Y66.935 E3.55204
G1 X166.482 Y67.468 E3.59017
G1 X166.668 Y67.682 E3.6047
G1 X167.113 Y68.256 E3.64193
G1 X167.558 Y68.999 E3.68632
G1 X168.91 Y71.634 E3.83813
G1 X171.553 Y76.275 E4.11189
G1 X174.416 Y80.702 E4.38213
G1 X177.314 Y84.696 E4.63507
G1 X177.707 Y85.307 E4.67231
G1 X178.032 Y85.957 E4.70956
G1 X178.282 Y86.638 E4.74675
G1 X178.457 Y87.343 E4.78398
G1 X178.552 Y88.063 E4.82121
G1 X178.572 Y88.553 E4.84635
G1 X178.586 Y93.37 E5.09326
G1 X178.548 Y94.095 E5.13047
G1 X178.431 Y94.812 E5.16771
G1 X178.235 Y95.511 E5.20492
G1 X177.871 Y96.376 E5.25303
G1 X174.928 Y102.174 E5.58632
G1 X172.822 Y107.017 E5.85702
G1 X170.998 Y111.964 E6.12728
G1 X169.446 Y117.038 E6.39926
G1 X168.103 Y122.541 E6.68961
G1 X167.892 Y123.237 E6.72689
G1 X167.606 Y123.904 E6.76409
G1 X167.249 Y124.536 E6.8013
G1 X166.641 Y125.342 E6.85305
G1 X166.439 Y125.571 E6.8687
G1 X165.929 Y126.089 E6.90596
G1 X165.366 Y126.547 E6.94316
G1 X164.755 Y126.941 E6.98043
G1 X164.105 Y127.265 E7.01766
G1 X163.424 Y127.515 E7.05484
G1 X162.472 Y127.731 E7.10488
G1 X158.327 Y128.355 E7.31974
G1 X157.716 Y128.419 E7.35123
G1 X155.211 Y128.56 E7.47984
G1 X154.881 Y128.57 E7.49676
G1 X151.683 Y128.59 E7.66069
G1 X150.83 Y128.54 E7.70449
G1 X149.846 Y128.418 E7.75531
G1 X148.992 Y128.254 E7.79989
G1 X147.743 Y127.928 E7.86605
G1 X143.493 Y126.925 E8.08989
G1 X141.003 Y126.436 E8.21996
G1 X135.756 Y125.629 E8.49207
G1 X130.441 Y125.118 E8.76577
G1 X126.441 Y124.924 E8.97104
G1 X125.718 Y124.849 E9.0083
G1 X125.008 Y124.695 E9.04554
G1 X124.32 Y124.464 E9.08274
G1 X123.661 Y124.159 E9.11996
G1 X123.163 Y123.866 E9.14958
G1 X119.041 Y121.186 E9.4016
G1 X114.473 Y118.552 E9.67188
G1 X109.698 Y116.147 E9.94594
G1 X106.312 Y114.612 E10.1365
G1 X105.668 Y114.276 E10.17373
G1 X105.116 Y113.91 E10.20768
G1 X104.523 Y113.472 E10.24547
G1 X103.964 Y113.009 E10.28268
G1 X103.413 Y112.434 E10.3235
G1 X102.981 Y111.925 E10.35772
G1 X102.542 Y111.346 E10.39496
G1 X102.169 Y110.723 E10.43218
G1 X101.934 Y110.225 E10.46041
G1 X101.512 Y109.227 E10.51595
G1 X101.266 Y108.544 E10.55316
G1 X101.097 Y107.837 E10.59042
G1 X101.027 Y107.344 E10.61595
G1 X100.951 Y106.618 E10.65336
G1 X100.915 Y105.893 E10.69057
G1 X100.968 Y105.096 E10.73151
G1 X101.637 Y99.85 E11.00259
G1 X102.045 Y94.581 E11.27348
G1 X102.154 Y89.282 E11.54516
G1 X101.965 Y84.007 E11.81572
G1 X101.471 Y78.687 E12.08959
G1 X100.969 Y74.872 E12.28683
G1 X100.914 Y74.148 E12.32404
G1 X100.981 Y73.069 E12.37946
G1 X101.107 Y72.196 E12.42467
G1 X101.25 Y71.484 E12.4619
G1 X101.47 Y70.792 E12.49912
G1 X101.627 Y70.416 E12.52
G1 X101.954 Y69.694 E12.56063
G1 X102.289 Y69.05 E12.59784
G0 F2700 X102.644 Y69.235
G1 F1200 X103.026 Y68.669 E12.63284
G1 X103.347 Y68.246 E12.66006
G1 X103.804 Y67.71 E12.69616
G1 X104.237 Y67.298 E12.7268
G1 X104.796 Y66.816 E12.76463
G1 X105.355 Y66.388 E12.80072
G1 X106.272 Y65.871 E12.85468
G1 X113.206 Y62.709 E13.24532
G1 X117.881 Y60.235 E13.51644
G1 X123.024 Y57.111 E13.82488
G1 X123.646 Y56.78 E13.861
G1 X124.3 Y56.522 E13.89704
G1 X124.98 Y56.34 E13.93312
G1 X125.677 Y56.236 E13.96924
G1 X126.575 Y56.219 E14.01528
G1 X130.345 Y56.421 E14.2088
G1 X131.044 Y56.498 E14.24485
G1 X131.642 Y56.63 E14.27624
G1 X135.148 Y57.585 E14.4625
G1 X139.026 Y58.496 E14.66669
G1 X139.257 Y58.543 E14.67877
G1 X139.938 Y58.723 E14.71488
G1 X140.338 Y58.869 E14.73671
G1 X146.587 Y61.399 E15.08228
G1 X148.968 Y62.233 E15.21159
G1 X154.088 Y63.787 E15.48586
G1 X159.283 Y65.05 E15.7599
G1 X162.684 Y65.711 E15.9375
G1 X163.366 Y65.884 E15.97356
G1 X164.024 Y66.134 E16.00964
G1 X164.65 Y66.456 E16.04572
G1 X165.235 Y66.848 E16.08182
G1 X165.772 Y67.303 E16.1179
G1 X166.18 Y67.73 E16.14817
G1 X166.366 Y67.944 E16.1627
G1 X166.797 Y68.5 E16.19876
G1 X167.203 Y69.181 E16.2394
G1 X168.556 Y71.818 E16.39133
G1 X171.211 Y76.481 E16.66637
G1 X174.089 Y80.932 E16.93806
G1 X176.991 Y84.93 E17.19129
G1 X177.371 Y85.523 E17.22739
G1 X177.682 Y86.154 E17.26345
G1 X177.919 Y86.817 E17.29954
G1 X178.08 Y87.503 E17.33566
G1 X178.162 Y88.202 E17.37174
G1 X178.173 Y88.554 E17.38979
G1 X178.187 Y93.371 E17.6367
G1 X178.149 Y94.074 E17.67279
G1 X178.032 Y94.768 E17.70886
G1 X177.836 Y95.444 E17.74494
G1 X177.516 Y96.195 E17.78678
G1 X174.563 Y102.012 E18.12118
G1 X172.454 Y106.862 E18.39227
G1 X170.614 Y111.851 E18.66483
G1 X169.062 Y116.927 E18.93691
G1 X167.715 Y122.447 E19.22816
G1 X167.51 Y123.12 E19.26422
G1 X167.229 Y123.766 E19.30033
G1 X166.877 Y124.376 E19.33643
G1 X166.342 Y125.078 E19.38167
G1 X166.14 Y125.307 E19.39733
G1 X165.645 Y125.808 E19.43343
G1 X165.096 Y126.249 E19.46952
G1 X164.501 Y126.626 E19.50563
G1 X163.867 Y126.932 E19.54171
G1 X163.203 Y127.165 E19.57778
G1 X162.413 Y127.337 E19.61923
G1 X158.268 Y127.961 E19.83409
G1 X157.693 Y128.02 E19.86371
G1 X155.188 Y128.161 E19.99232
G1 X154.879 Y128.171 E20.00817
G1 X151.681 Y128.191 E20.1721
G1 X150.879 Y128.144 E20.21328
G1 X149.895 Y128.022 E20.2641
G1 X149.093 Y127.868 E20.30596
G1 X147.809 Y127.533 E20.37398
G1 X143.584 Y126.536 E20.59649
G1 X141.094 Y126.046 E20.72658
G1 X135.784 Y125.23 E21.00195
G1 X130.498 Y124.722 E21.27415
G1 X126.46 Y124.526 E21.48138
G1 X125.76 Y124.452 E21.51746
G1 X125.073 Y124.299 E21.55354
G1 X124.407 Y124.069 E21.58965
G1 X123.772 Y123.766 E21.62572
G1 X123.381 Y123.531 E21.6491
G1 X119.272 Y120.86 E21.90031
G1 X114.653 Y118.196 E22.17363
G1 X109.874 Y115.789 E22.44791
G1 X106.477 Y114.249 E22.63909
G1 X105.853 Y113.922 E22.6752
G1 X105.353 Y113.589 E22.706
G1 X104.76 Y113.151 E22.74378
G1 X104.219 Y112.701 E22.77985
G1 X103.717 Y112.176 E22.81709
G1 X103.285 Y111.667 E22.85131
G1 X102.861 Y111.105 E22.88739
G1 X102.503 Y110.499 E22.92347
G1 X102.302 Y110.07 E22.94776
G1 X101.88 Y109.072 E23.0033
G1 X101.643 Y108.409 E23.03939
G1 X101.482 Y107.723 E23.07551
G1 X101.424 Y107.303 E23.09724
G1 X101.348 Y106.577 E23.13466
G1 X101.314 Y105.873 E23.17078
G1 X101.364 Y105.146 E23.20814
G1 X102.032 Y99.909 E23.47875
G1 X102.444 Y94.584 E23.75252
G1 X102.553 Y89.277 E24.02461
G1 X102.363 Y83.973 E24.29666
G1 X101.869 Y78.651 E24.57063
G1 X101.365 Y74.82 E24.76869
G1 X101.313 Y74.118 E24.80477
G1 X101.376 Y73.126 E24.85572
G1 X101.502 Y72.253 E24.90093
G1 X101.642 Y71.563 E24.93702
G1 X101.99 Y70.581 E24.99043
G1 X102.317 Y69.859 E25.03105
G1 X102.644 Y69.235 E25.06716
G1 F3600 E18.56716
G0 F2700 X115.411 Y70.561
G0 X116.84 Y71.43
;TYPE:SUPPORT
G1 F3600 E25.06716
G1 F1200 X117.708 Y71.553 E25.1121
G1 X117.949 Y71.588 E25.12458
G1 X119.571 Y71.832 E25.20866
G1 X120.409 Y71.975 E25.25224
G1 X120.501 Y72.084 E25.25955
G1 X120.501 Y75.914 E25.45587
G1 X120.405 Y76.028 E25.46351
G1 X119.34 Y76.204 E25.51884
G1 X119.34 Y76.203 E25.51889
G1 X119.25 Y76.217 E25.52356
G1 X119.029 Y76.249 E25.535
G1 X118.012 Y76.404 E25.58773
G1 X116.838 Y76.57 E25.64851
G1 X116.84 Y71.43 E25.91198
G0 F2700 X117.304 Y71.698
G1 F1200 X117.304 Y76.303 E26.14802
G0 F2700 X117.039 Y74.648
G1 F1200 X120.301 Y74.648 E26.31523
G0 F2700 X119.97 Y75.897
G1 F1200 X119.97 Y72.103 E26.5097
G0 F2700 X119.229 Y71.982
G1 F1200 X117.04 Y71.982 E26.62191
G1 F3600 E20.12191
G0 F2700 X126.28 Y77.367
G0 X126.32 Y77.367
G1 F3600 E26.62191
G1 F1200 X126.554 Y77.599 E26.6388
G1 X128.094 Y77.597 E26.71774
G1 X127.865 Y78.145 E26.74818
G1 X126.624 Y78.145 E26.81179
G1 X126.629 Y78.136 E26.81232
G1 X126.543 Y77.617 E26.83929
G1 X126.204 Y77.281 E26.86375
G1 X126.203 Y62.717 E27.61028
G1 X126.321 Y62.599 E27.61883
G1 X126.355 Y62.599 E27.62058
G1 X126.319 Y62.635 E27.62319
G1 X126.32 Y77.367 E28.37833
G1 F3600 E21.87833
G0 F2700 X126.284 Y77.559
G0 X126.79 Y78.061
G0 X133.319 Y82.635
G1 F3600 E28.37833
G1 F1200 X133.32 Y97.367 E29.13346
G1 X133.554 Y97.599 E29.15036
G1 X135.093 Y97.597 E29.22924
G1 X134.864 Y98.144 E29.25964
G1 X133.896 Y98.144 E29.30926
G1 X133.773 Y97.849 E29.32564
G1 X133.204 Y97.285 E29.36671
G1 X133.203 Y82.717 E30.11344
G1 X133.321 Y82.599 E30.12199
G1 X133.355 Y82.599 E30.12374
G1 X133.319 Y82.635 E30.12635
G1 F3600 E23.62635
G0 F2700 X126.427 Y102.322
G0 X126.283 Y102.441
G0 X126.319 Y102.635
G1 F3600 E30.12635
G1 F1200 X126.32 Y117.367 E30.88148
G1 X126.554 Y117.599 E30.89837
G1 X128.093 Y117.597 E30.97726
G1 X127.864 Y118.144 E31.00766
G1 X126.896 Y118.144 E31.05728
G1 X126.773 Y117.849 E31.07366
G1 X126.204 Y117.285 E31.11473
G1 X126.203 Y102.717 E31.86146
G1 X126.321 Y102.599 E31.87001
G1 X126.355 Y102.599 E31.87175
G1 X126.319 Y102.635 E31.87436
G1 F3600 E25.37436
G0 F2700 X126.356 Y102.625
G0 X126.278 Y102.644
G0 X120.501 Y104.084
G1 F3600 E31.87436
G1 F1200 X120.501 Y107.914 E32.07068
G1 X120.405 Y108.028 E32.07832
G1 X119.34 Y108.204 E32.13365
G1 X119.34 Y108.203 E32.13371
G1 X119.25 Y108.217 E32.13837
G1 X119.029 Y108.249 E32.14982
G1 X118.012 Y108.404 E32.20255
G1 X116.838 Y108.57 E32.26333
G1 X116.84 Y103.43 E32.5268
G1 X117.708 Y103.553 E32.57173
G1 X117.949 Y103.588 E32.58422
G1 X119.571 Y103.832 E32.66829
G1 X120.409 Y103.975 E32.71187
G1 X120.501 Y104.084 E32.71918
G0 F2700 X119.97 Y104.103
G1 F1200 X119.97 Y107.897 E32.91365
G0 F2700 X120.301 Y106.64
G1 F1200 X117.039 Y106.64 E33.08086
G0 F2700 X117.304 Y108.303
G1 F1200 X117.304 Y103.698 E33.3169
G0 F2700 X117.04 Y103.974
G1 F1200 X119.176 Y103.974 E33.42639
G0 F2700 X110.865 Y99.145
G1 F1200 X109.624 Y99.145 E33.49
G1 X109.629 Y99.136 E33.49053
G1 X109.543 Y98.617 E33.5175
G1 X109.204 Y98.281 E33.54196
G1 X109.203 Y83.717 E34.28849
G1 X109.539 Y83.38 E34.31288
G1 X109.624 Y82.861 E34.33984
G1 X109.621 Y82.855 E34.34019
G1 X110.864 Y82.855 E34.4039
G1 X111.093 Y83.401 E34.43425
G1 X109.553 Y83.401 E34.51319
G1 X109.319 Y83.635 E34.53015
G1 X109.32 Y98.367 E35.28529
G1 X109.554 Y98.599 E35.30218
G1 X111.094 Y98.597 E35.38112
G1 X110.865 Y99.145 E35.41156
G1 F3600 E28.91156
G0 F2700 X157.28 Y98.367
G0 X157.32 Y98.367
G1 F3600 E35.41156
G1 F1200 X157.554 Y98.599 E35.42845
G1 X159.094 Y98.597 E35.50739
G1 X158.865 Y99.145 E35.53783
G1 X157.624 Y99.145 E35.60145
G1 X157.629 Y99.136 E35.60197
G1 X157.543 Y98.617 E35.62894
G1 X157.204 Y98.281 E35.6534
G1 X157.203 Y83.717 E36.39993
G1 X157.539 Y83.38 E36.42433
G1 X157.624 Y82.861 E36.45128
G1 X157.621 Y82.855 E36.45163
G1 X158.864 Y82.855 E36.51534
G1 X159.093 Y83.401 E36.54569
G1 X157.553 Y83.401 E36.62463
G1 X157.319 Y83.635 E36.64159
G1 X157.32 Y98.367 E37.39673
G1 F3600 E30.89673
G0 F2700 X157.28 Y98.367
G0 X157.283 Y83.443
G0 X158.668 Y76.453
G1 F3600 E37.39673
G1 F1200 X157.838 Y76.57 E37.4397
G1 X157.84 Y71.428 E37.70327
G1 X159.604 Y71.682 E37.79462
G1 X159.604 Y71.681 E37.79467
G1 X160.338 Y71.799 E37.83278
G1 X161.405 Y71.972 E37.88818
G1 X161.501 Y72.085 E37.89578
G1 X161.501 Y75.918 E38.09226
G1 X161.404 Y76.03 E38.09985
G1 X160.341 Y76.203 E38.15506
G1 X160.341 Y76.202 E38.15511
G1 X159.01 Y76.405 E38.22412
G1 X158.689 Y76.45 E38.24074
G1 X158.668 Y76.453 E38.24182
G0 F2700 X159.96 Y76.059
G1 F1200 X159.96 Y71.942 E38.45286
G0 F2700 X160.219 Y71.982
G1 F1200 X158.04 Y71.982 E38.56455
G0 F2700 X158.039 Y74.648
G1 F1200 X161.301 Y74.648 E38.73175
G1 F3600 E32.23175
G0 F2700 X157.283 Y83.443
G0 X157.284 Y98.559
G0 X159.639 Y103.687
G1 F3600 E38.73175
G1 F1200 X160.338 Y103.8 E38.76805
G1 X161.405 Y103.972 E38.82345
G1 X161.501 Y104.086 E38.83109
G1 X161.501 Y107.918 E39.02751
G1 X161.404 Y108.03 E39.0351
G1 X160.341 Y108.203 E39.09031
G1 X160.341 Y108.202 E39.09036
G1 X159.01 Y108.405 E39.15937
G1 X158.689 Y108.45 E39.17599
G1 X158.668 Y108.453 E39.17708
G1 X157.838 Y108.57 E39.22004
G1 X157.84 Y103.428 E39.48361
G1 X159.639 Y103.687 E39.57678
G0 F2700 X159.96 Y103.942
G1 F1200 X159.96 Y108.059 E39.78781
G0 F2700 X161.301 Y106.64
G1 F1200 X158.039 Y106.64 E39.95501
G0 F2700 X158.04 Y103.974
G1 F1200 X160.165 Y103.974 E40.06394
G0 F2700 X159.604 Y116.682
G1 F1200 X159.604 Y116.681 E40.06399
G1 X160.338 Y116.799 E40.10209
G1 X161.405 Y116.972 E40.1575
G1 X161.501 Y117.085 E40.1651
G1 X161.501 Y120.918 E40.36157
G1 X161.404 Y121.03 E40.36917
G1 X160.341 Y121.203 E40.42437
G1 X160.341 Y121.202 E40.42443
G1 X159.01 Y121.405 E40.49344
G1 X158.689 Y121.45 E40.51005
G1 X158.668 Y121.453 E40.51114
G1 X157.838 Y121.57 E40.55411
G1 X157.84 Y116.428 E40.81768
G1 X159.604 Y116.682 E40.90903
G0 F2700 X159.96 Y116.942
G1 F1200 X159.96 Y121.059 E41.12006
G0 F2700 X161.301 Y119.97
G1 F1200 X158.039 Y119.97 E41.28727
G0 F2700 X158.04 Y117.304
G1 F1200 X161.301 Y117.304 E41.45442
G1 F3600 E34.95442
G0 F2700 X133.79 Y98.061
G0 X133.284 Y97.559
G0 X115.843 Y76.255
G0 X114.567 Y76.26
G0 X114.182 Y75.922
;TYPE:WALL-INNER
G1 F3600 E41.45442
G1 F1200 X113.803 Y75.97 E41.474
G1 X113.456 Y76.004 E41.49187
G1 X111.876 Y76.004 E41.57286
G1 X111.608 Y76.004 E41.5866
G1 X111.289 Y76.004 E41.60295
G1 X111.098 Y76.004 E41.61274
G1 X111.289 Y75.945
G1 X111.608 Y75.783
G1 X111.822 Y75.623 E41.62354
G1 X111.895 Y75.569 E41.62819
G1 X112.14 Y75.31 E41.64647
G1 X112.338 Y75.014 E41.66472
G1 X112.482 Y74.689 E41.68294
G1 X112.57 Y74.347 E41.70104
G1 X112.601 Y73.992 E41.71931
G1 X112.567 Y73.634 E41.73774
G1 X112.476 Y73.29 E41.75598
G1 X112.328 Y72.969 E41.7741
G1 X112.129 Y72.675 E41.7923
G1 X111.881 Y72.42 E41.81053
G1 X111.823 Y72.377 E41.81423
G1 X111.595 Y72.208 E41.82878
G1 X111.273 Y72.047 E41.84723
G1 X111.107 Y71.998 E41.8561
G1 X111.273 Y71.998
G1 X111.594 Y71.998
G1 X111.879 Y71.998 E41.86743
G1 X113.459 Y71.996 E41.94842
G1 X114.185 Y72.078 E41.98587
G1 X114.178 Y74.945 E42.13283
G1 X114.182 Y75.922 E42.18291
G0 F2700 X113.854 Y76.366
G1 F1200 X113.474 Y76.403 E42.20248
G1 X110.593 Y76.403 E42.35016
G1 X110.169 Y76.378 E42.37193
G1 X109.831 Y76.305 E42.38965
G1 X109.509 Y76.187 E42.40723
G1 X109.208 Y76.024 E42.42478
G1 X108.932 Y75.819 E42.4424
G1 X108.698 Y75.587 E42.45929
G1 X108.486 Y75.307 E42.47729
G1 X108.318 Y74.999 E42.49528
G1 X108.199 Y74.681 E42.51268
G1 X108.126 Y74.354 E42.52986
G1 X108.101 Y74.013 E42.54738
G1 X108.122 Y73.669 E42.56505
G1 X108.195 Y73.331 E42.58277
G1 X108.313 Y73.009 E42.60035
G1 X108.476 Y72.708 E42.6179
G1 X108.681 Y72.432 E42.63552
G1 X108.913 Y72.198 E42.65241
G1 X109.193 Y71.986 E42.67041
G1 X109.495 Y71.821 E42.68805
G1 X109.821 Y71.698 E42.70591
G1 X110.146 Y71.626 E42.72297
G1 X110.507 Y71.599 E42.74153
G1 X113.476 Y71.597 E42.89372
G1 X113.819 Y71.63 E42.91138
G1 X114.584 Y71.726 E42.9509
