;FLAVOR:RepRap
;TIME:949
;Filament used: 0.72716m
;Layer height: 0.2
;Generated with Cura_SteamEngine 2.5.0-twosilly
M190 S50
M104 S220
M109 S220
G28 ;Home
G1 Z15.0 F6000 ;Move the platform down 15mm
;Prime the extruder
G92 E0
G1 F200 E10
G92 E0
;LAYER_COUNT:12
;LAYER:0
M107
G0 F2700 X123.359 Y61.079 Z0.3
G0 X123.597 Y60.655
;TYPE:SKIRT
G1 F1200 X123.767 Y60.377 E0.0167
G1 X124.18 Y59.779 E0.05396
G1 X124.886 Y59.003 E0.10773
G1 X125.405 Y58.517 E0.14418
G1 X125.962 Y58.051 E0.1814
G1 X126.567 Y57.648 E0.21866
G1 X127.028 Y57.401 E0.24547
G1 X127.48 Y57.181 E0.27124
G1 X128.15 Y56.899 E0.3085
G1 X128.846 Y56.693 E0.34571
G1 X129.393 Y56.587 E0.37427
G1 X130.109 Y56.48 E0.41137
G1 X131.085 Y56.408 E0.46154
G1 X147 Y56.411 E1.27732
G1 X147.725 Y56.451 E1.31454
G1 X148.216 Y56.524 E1.33998
G1 X148.925 Y56.657 E1.37696
G1 X149.63 Y56.83 E1.41417
G1 X150.312 Y57.08 E1.4514
G1 X150.823 Y57.326 E1.48047
G1 X151.288 Y57.575 E1.50751
G1 X151.909 Y57.952 E1.54474
G1 X152.484 Y58.396 E1.58198
G1 X152.89 Y58.777 E1.61052
G1 X153.34 Y59.237 E1.64351
G1 X153.819 Y59.784 E1.68078
G1 X154.234 Y60.379 E1.71796
G1 X154.586 Y61.025 E1.75567
G1 X154.879 Y61.643 E1.79073
G1 X155.153 Y62.315 E1.82793
G1 X155.352 Y63.014 E1.86518
G1 X155.431 Y63.42 E1.88638
G1 X155.797 Y65.693 E2.00439
G1 X156.823 Y70.973 E2.2801
G1 X157.425 Y73.494 E2.41296
G1 X158.876 Y78.597 E2.6849
G1 X160.63 Y83.664 E2.95974
G1 X161.569 Y86.085 E3.09285
G1 X161.794 Y86.776 E3.1301
G1 X161.941 Y87.487 E3.16731
G1 X161.996 Y87.966 E3.19203
G1 X162.08 Y89.063 E3.24842
G1 X162.098 Y89.664 E3.27924
G1 X162.074 Y91.294 E3.3628
G1 X162.024 Y92.019 E3.40005
G1 X161.942 Y92.517 E3.42592
G1 X161.314 Y95.593 E3.58685
G1 X160.478 Y100.858 E3.8601
G1 X160.035 Y104.924 E4.06975
G1 X159.897 Y105.728 E4.11157
G1 X159.779 Y106.227 E4.13785
G1 X159.573 Y106.923 E4.17506
G1 X159.405 Y107.348 E4.19848
G1 X156.67 Y113.614 E4.54893
G1 X155.046 Y117.999 E4.78862
G1 X154.668 Y118.836 E4.83569
G1 X154.416 Y119.304 E4.86294
G1 X154.037 Y119.923 E4.90014
G1 X153.592 Y120.497 E4.93737
G1 X153.22 Y120.892 E4.96518
G1 X152.762 Y121.34 E4.99802
G1 X152.216 Y121.819 E5.03526
G1 X151.62 Y122.235 E5.07251
G1 X150.975 Y122.586 E5.11015
G1 X150.357 Y122.879 E5.14521
G1 X149.685 Y123.153 E5.18241
G1 X148.986 Y123.352 E5.21966
G1 X148.351 Y123.464 E5.25271
G1 X147.737 Y123.541 E5.28443
G1 X146.913 Y123.592 E5.32675
G1 X130.899 Y123.585 E6.1476
G1 X130.174 Y123.545 E6.18482
G1 X129.216 Y123.366 E6.23478
G1 X128.41 Y123.153 E6.27751
G1 X127.719 Y122.929 E6.31474
G1 X127.057 Y122.631 E6.35196
G1 X126.646 Y122.398 E6.37617
G1 X126.377 Y122.233 E6.39235
G1 X125.779 Y121.82 E6.4296
G1 X125.11 Y121.223 E6.47556
G1 X124.66 Y120.763 E6.50855
G1 X124.181 Y120.216 E6.54582
G1 X123.766 Y119.621 E6.583
G1 X123.569 Y119.28 E6.60319
G1 X121.801 Y116.002 E6.79409
G1 X119.062 Y111.385 E7.06926
G1 X117.191 Y108.497 E7.24565
G1 X116.831 Y107.866 E7.28289
G1 X116.639 Y107.449 E7.30642
G1 X116.516 Y107.154 E7.3228
G1 X116.274 Y106.469 E7.36004
G1 X116.069 Y105.509 E7.41036
G1 X115.967 Y104.764 E7.4489
G1 X115.906 Y103.839 E7.49642
G1 X115.915 Y101.872 E7.59725
G1 X115.958 Y101.147 E7.63447
G1 X116.029 Y100.68 E7.65869
G1 X117.151 Y94.721 E7.9695
G1 X117.517 Y92.189 E8.10064
G1 X117.965 Y88.076 E8.31271
G1 X118.083 Y87.36 E8.34991
G1 X118.182 Y86.97 E8.37053
G1 X119.044 Y83.968 E8.53063
G1 X120.372 Y78.745 E8.80687
G1 X120.908 Y76.193 E8.94053
G1 X121.365 Y73.646 E9.07318
G1 X122.09 Y68.346 E9.34737
G1 X122.439 Y64.345 E9.55324
G1 X122.542 Y63.626 E9.59047
G1 X122.627 Y63.255 E9.60998
G1 X122.841 Y62.434 E9.65347
G1 X123.063 Y61.742 E9.69072
G1 X123.359 Y61.079 E9.72794
G1 X123.597 Y60.655 E9.75286
G0 F2700 X123.938 Y60.863
G1 F1200 X124.108 Y60.585 E9.76956
G1 X124.508 Y60.007 E9.80559
G1 X125.159 Y59.294 E9.85508
G1 X125.678 Y58.808 E9.89153
G1 X126.219 Y58.357 E9.92763
G1 X126.807 Y57.97 E9.96371
G1 X127.203 Y57.759 E9.98671
G1 X127.655 Y57.539 E10.01248
G1 X128.304 Y57.268 E10.04853
G1 X128.98 Y57.071 E10.08462
G1 X129.452 Y56.982 E10.10925
G1 X130.168 Y56.875 E10.14635
G1 X131.085 Y56.807 E10.19349
G1 X147 Y56.81 E11.00926
G1 X147.703 Y56.85 E11.04536
G1 X148.142 Y56.916 E11.06811
G1 X148.851 Y57.049 E11.10509
G1 X149.535 Y57.218 E11.1412
G1 X150.194 Y57.463 E11.17724
G1 X150.635 Y57.677 E11.20237
G1 X151.1 Y57.926 E11.22941
G1 X151.701 Y58.293 E11.2655
G1 X152.256 Y58.726 E11.30158
G1 X152.605 Y59.056 E11.3262
G1 X153.055 Y59.516 E11.35919
G1 X153.518 Y60.047 E11.3953
G1 X153.918 Y60.626 E11.43137
G1 X154.225 Y61.196 E11.46456
G1 X154.518 Y61.814 E11.49962
G1 X154.783 Y62.466 E11.53569
G1 X155.037 Y63.483 E11.58942
G1 X155.406 Y65.772 E11.70827
G1 X156.431 Y71.05 E11.98387
G1 X157.034 Y73.577 E12.11703
G1 X158.499 Y78.726 E12.39144
G1 X160.257 Y83.804 E12.66688
G1 X161.197 Y86.229 E12.8002
G1 X161.414 Y86.899 E12.8363
G1 X161.553 Y87.589 E12.87238
G1 X161.598 Y87.997 E12.89342
G1 X161.682 Y89.094 E12.94981
G1 X161.699 Y89.658 E12.97873
G1 X161.675 Y91.288 E13.06229
G1 X161.625 Y91.99 E13.09837
G1 X161.551 Y92.437 E13.12159
G1 X160.921 Y95.52 E13.28289
G1 X160.084 Y100.793 E13.55656
G1 X159.639 Y104.88 E13.76729
G1 X159.509 Y105.636 E13.80661
G1 X159.391 Y106.135 E13.83289
G1 X159.19 Y106.81 E13.86899
G1 X159.039 Y107.188 E13.88986
G1 X156.305 Y113.452 E14.24019
G1 X154.672 Y117.861 E14.48119
G1 X154.317 Y118.646 E14.52536
G1 X154.065 Y119.114 E14.5526
G1 X153.697 Y119.714 E14.58868
G1 X153.262 Y120.269 E14.62483
G1 X152.941 Y120.607 E14.64872
G1 X152.483 Y121.055 E14.68156
G1 X151.953 Y121.518 E14.71763
G1 X151.374 Y121.918 E14.7537
G1 X150.804 Y122.225 E14.78689
G1 X150.186 Y122.518 E14.82195
G1 X149.534 Y122.783 E14.85802
G1 X148.856 Y122.973 E14.89412
G1 X148.301 Y123.068 E14.92298
G1 X147.687 Y123.145 E14.9547
G1 X146.913 Y123.193 E14.99445
G1 X130.899 Y123.186 E15.8153
G1 X130.196 Y123.146 E15.85139
G1 X129.318 Y122.98 E15.8972
G1 X128.512 Y122.767 E15.93993
G1 X127.843 Y122.549 E15.97599
G1 X127.202 Y122.256 E16.01212
G1 X126.854 Y122.058 E16.03264
G1 X126.585 Y121.893 E16.04882
G1 X126.007 Y121.491 E16.08491
G1 X125.395 Y120.944 E16.12698
G1 X124.945 Y120.484 E16.15997
G1 X124.482 Y119.953 E16.19608
G1 X123.92 Y119.091 E16.24883
G1 X122.149 Y115.807 E16.44008
G1 X119.393 Y111.163 E16.71688
G1 X117.526 Y108.28 E16.89294
G1 X117.178 Y107.668 E16.92903
G1 X117.007 Y107.295 E16.95006
G1 X116.884 Y107 E16.96644
G1 X116.651 Y106.336 E17.00251
G1 X116.464 Y105.455 E17.04868
G1 X116.362 Y104.71 E17.08722
G1 X116.305 Y103.841 E17.13186
G1 X116.314 Y101.874 E17.23269
G1 X116.357 Y101.171 E17.26879
G1 X116.421 Y100.754 E17.29042
G1 X117.546 Y94.783 E17.60186
G1 X117.91 Y92.257 E17.73268
G1 X118.361 Y88.12 E17.94599
G1 X118.477 Y87.425 E17.98211
G1 X118.566 Y87.08 E18.00037
G1 X119.419 Y84.11 E18.15877
G1 X120.76 Y78.833 E18.43785
G1 X121.305 Y76.24 E18.57367
G1 X121.759 Y73.71 E18.70543
G1 X122.486 Y68.393 E18.9805
G1 X122.836 Y64.38 E19.18698
G1 X123.013 Y63.355 E19.2403
G1 X123.227 Y62.534 E19.28379
G1 X123.443 Y61.864 E19.31988
G1 X123.734 Y61.223 E19.35596
G1 X123.938 Y60.863 E19.37717
G1 F3600 E12.87717
G0 F2700 X129.051 Y63.189
G0 X130.023 Y64.023
G0 X130.644 Y64.084
;TYPE:WALL-INNER
G1 F3600 E19.37717
G1 F1200 X130.534 Y64.114 E19.38301
G1 X130.638 Y64.071
G1 X130.687 Y64.05 E19.38571
G1 X130.845 Y64.011 E19.39405
G1 X130.97 Y64.002 E19.40047
G1 X131.038 Y63.996 E19.40397
G1 X131.305 Y63.996 E19.41766
G1 X131.626 Y63.996 E19.43411
G1 X131.926 Y63.996 E19.44949
G1 X132.107 Y63.996 E19.45877
G1 X136.895 Y63.996 E19.70419
G1 X137.026 Y63.996 E19.71091
G1 X137.327 Y63.996 E19.72633
G1 X137.644 Y63.996 E19.74258
G1 X137.974 Y63.996 E19.7595
G1 X138.305 Y63.996 E19.77647
G1 X138.626 Y63.996 E19.79292
G1 X138.926 Y63.996 E19.8083
G1 X139.107 Y63.996 E19.81757
G1 X145.648 Y63.996 E20.15286
G1 X145.662 Y63.996 E20.15357
G1 X145.955 Y63.996 E20.16859
G1 X146.275 Y63.996 E20.18499
G1 X146.404 Y63.996 E20.19161
G1 X146.275 Y64.031
G1 X145.955 Y64.182
G1 X145.662 Y64.383 E20.20461
G1 X145.652 Y64.392 E20.20529
G1 X145.407 Y64.634 E20.22294
G1 X145.195 Y64.926 E20.24144
G1 X145.042 Y65.247 E20.25967
G1 X144.942 Y65.586 E20.27778
G1 X144.903 Y65.938 E20.29594
G1 X144.921 Y66.295 E20.31426
G1 X145.003 Y66.643 E20.33259
G1 X145.14 Y66.971 E20.35081
G1 X145.332 Y67.272 E20.36911
G1 X145.568 Y67.533 E20.38714
G1 X145.679 Y67.621 E20.39441
G1 X145.847 Y67.754 E20.40539
G1 X146.161 Y67.923 E20.42367
G1 X146.398 Y68.004 E20.43651
G1 X146.161 Y68.004
G1 X145.847 Y68.004
G1 X145.633 Y68.004 E20.44554
G1 X139.123 Y68.004 E20.77923
G1 X138.825 Y68.004 E20.79451
G1 X138.517 Y68.004 E20.8103
G1 X138.194 Y68.004 E20.82685
G1 X137.857 Y68.004 E20.84413
G1 X137.534 Y68.004 E20.86068
G1 X137.223 Y68.004 E20.87662
G1 X136.929 Y68.004 E20.89169
G1 X136.895 Y68.004 E20.89344
G1 X132.123 Y68.004 E21.13804
G1 X131.825 Y68.004 E21.15332
G1 X131.517 Y68.004 E21.16911
G1 X131.194 Y68.004 E21.18566
G1 X131.038 Y68.004 E21.19366
G1 X130.845 Y67.989 E21.20358
G1 X130.687 Y67.95 E21.21192
G1 X130.551 Y67.895 E21.21944
G1 X130.692 Y67.917
G1 X130.857 Y67.943
G1 X131.037 Y67.942
G1 X131.194 Y67.941
G1 X131.517 Y67.878
G1 X131.825 Y67.766 E21.2221
G1 X132.082 Y67.617 E21.23436
G1 X132.114 Y67.598 E21.23627
G1 X132.366 Y67.389 E21.25305
G1 X132.582 Y67.139 E21.26999
G1 X132.752 Y66.852 E21.28708
G1 X132.87 Y66.546 E21.3039
G1 X132.937 Y66.22 E21.32095
G1 X132.945 Y65.891 E21.33782
G1 X132.9 Y65.564 E21.35474
G1 X132.796 Y65.247 E21.37184
G1 X132.647 Y64.959 E21.38847
G1 X132.446 Y64.694 E21.40551
G1 X132.2 Y64.465 E21.42274
G1 X132.078 Y64.386 E21.43019
G1 X131.926 Y64.288 E21.43826
G1 X131.626 Y64.155 E21.44069
G1 X131.305 Y64.077
G1 X131.034 Y64.055
G1 X130.974 Y64.05
G1 X130.851 Y64.062
G1 X130.689 Y64.079
G1 X130.644 Y64.084
G0 F2700 X136.088 Y65.616
G1 F1200 X136.053 Y65.948 E21.4578
G1 X136.072 Y66.276 E21.47464
G1 X136.146 Y66.596 E21.49148
G1 X136.272 Y66.899 E21.5083
G1 X136.45 Y67.181 E21.52539
G1 X136.672 Y67.425 E21.5423
G1 X136.903 Y67.608 E21.55741
G1 X136.929 Y67.629 E21.55907
G1 X137.223 Y67.786 E21.56751
G1 X137.534 Y67.892
G1 X137.857 Y67.943
G1 X138.194 Y67.941
G1 X138.517 Y67.878
G1 X138.825 Y67.766 E21.57017
G1 X139.082 Y67.617 E21.58243
G1 X139.114 Y67.598 E21.58433
G1 X139.366 Y67.389 E21.60112
G1 X139.582 Y67.139 E21.61805
G1 X139.752 Y66.852 E21.63515
G1 X139.87 Y66.546 E21.65196
G1 X139.937 Y66.22 E21.66902
G1 X139.945 Y65.891 E21.68589
G1 X139.9 Y65.564 E21.70281
G1 X139.796 Y65.247 E21.71991
G1 X139.647 Y64.959 E21.73653
G1 X139.446 Y64.694 E21.75358
G1 X139.2 Y64.465 E21.77081
G1 X139.078 Y64.386 E21.77826
G1 X138.926 Y64.288 E21.78633
G1 X138.626 Y64.155 E21.78875
G1 X138.305 Y64.077
G1 X137.974 Y64.05
G1 X137.644 Y64.084
G1 X137.327 Y64.171
G1 X137.026 Y64.312 E21.79826
G1 X136.919 Y64.387 E21.80429
G1 X136.758 Y64.5 E21.81437
G1 X136.52 Y64.731 E21.83137
G1 X136.324 Y65.005 E21.84864
G1 X136.184 Y65.297 E21.86524
G1 X136.088 Y65.616 E21.88232
G0 F2700 X136.481 Y65.695
G1 F1200 X136.453 Y65.958 E21.89587
G1 X136.468 Y66.219 E21.90927
G1 X136.527 Y66.474 E21.92269
G1 X136.627 Y66.715 E21.93606
G1 X136.768 Y66.938 E21.94959
G1 X136.945 Y67.132 E21.96305
G1 X137.149 Y67.294 E21.9764
G1 X137.382 Y67.419 E21.98996
G1 X137.63 Y67.503 E22.00338
G1 X137.887 Y67.544 E22.01672
G1 X138.154 Y67.542 E22.0304
G1 X138.41 Y67.492 E22.04377
G1 X138.656 Y67.403 E22.05718
G1 X138.885 Y67.27 E22.07076
G1 X139.086 Y67.103 E22.08415
G1 X139.257 Y66.905 E22.09756
G1 X139.392 Y66.677 E22.11114
G1 X139.486 Y66.433 E22.12455
G1 X139.539 Y66.175 E22.13805
G1 X139.545 Y65.913 E22.15148
G1 X139.51 Y65.654 E22.16488
G1 X139.427 Y65.402 E22.17848
G1 X139.308 Y65.173 E22.19171
G1 X139.149 Y64.962 E22.20525
G1 X138.954 Y64.781 E22.21889
G1 X138.736 Y64.64 E22.23219
G1 X138.497 Y64.534 E22.2456
G1 X138.242 Y64.472 E22.25905
G1 X137.979 Y64.451 E22.27257
G1 X137.718 Y64.478 E22.28602
G1 X137.465 Y64.547 E22.29946
G1 X137.226 Y64.659 E22.31299
G1 X137.013 Y64.808 E22.32632
G1 X136.824 Y64.992 E22.33984
G1 X136.669 Y65.209 E22.35351
G1 X136.557 Y65.442 E22.36676
G1 X136.481 Y65.695 E22.3803
G0 F2700 X136.383 Y65.676
G0 X132.644 Y65.908
G0 X132.545 Y65.913
G1 F1200 X132.51 Y65.654 E22.3937
G1 X132.427 Y65.402 E22.4073
G1 X132.308 Y65.173 E22.42052
G1 X132.149 Y64.962 E22.43407
G1 X131.954 Y64.781 E22.4477
G1 X131.736 Y64.64 E22.46101
G1 X131.497 Y64.534 E22.47441
G1 X131.242 Y64.472 E22.48787
G1 X130.979 Y64.451 E22.50139
G1 X130.718 Y64.478 E22.51484
G1 X130.465 Y64.547 E22.52828
G1 X130.226 Y64.659 E22.54181
G1 X130.021 Y64.803 E22.55465
G1 X130.013 Y64.808 E22.55514
G1 X129.824 Y64.992 E22.56866
G1 X129.735 Y65.117 E22.57652
G1 X129.669 Y65.209 E22.58233
G1 X129.597 Y65.359 E22.59085
G1 X129.597 Y65.209
G1 X129.597 Y65.019
G1 X129.6 Y64.974
G1 X129.616 Y64.786 E22.59524
G1 X129.632 Y64.717 E22.59702
G1 X129.634 Y64.708 E22.59748
G1 X129.67 Y64.562 E22.60519
G1 X129.751 Y64.364 E22.61616
G1 X129.866 Y64.176 E22.62745
G1 X130.009 Y64.009 E22.63872
G1 X130.176 Y63.866 E22.64999
G1 X130.364 Y63.751 E22.66129
G1 X130.562 Y63.67 E22.67226
G1 X130.786 Y63.615 E22.68408
G1 X131.021 Y63.597 E22.69616
G1 X146.979 Y63.597 E23.51414
G1 X147.214 Y63.615 E23.52622
G1 X147.438 Y63.67 E23.53805
G1 X147.636 Y63.751 E23.54901
G1 X147.824 Y63.866 E23.56031
G1 X147.991 Y64.009 E23.57158
G1 X148.134 Y64.176 E23.58285
G1 X148.206 Y64.293 E23.58989
G1 X148.249 Y64.364 E23.59414
G1 X148.326 Y64.552 E23.60456
G1 X148.33 Y64.562 E23.60511
G1 X148.337 Y64.595 E23.60684
G1 X148.384 Y64.786 E23.61692
G1 X148.388 Y64.851 E23.62026
G1 X148.403 Y65.048 E23.63039
G1 X148.27 Y64.875
G1 X148.259 Y64.861
G1 X148.148 Y64.758
G1 X148.048 Y64.665
G1 X147.978 Y64.619 E23.63448
G1 X147.807 Y64.507 E23.64496
G1 X147.544 Y64.391 E23.65969
G1 X147.265 Y64.324 E23.6744
G1 X146.977 Y64.301 E23.68921
G1 X146.689 Y64.332 E23.70406
G1 X146.413 Y64.407 E23.71872
G1 X146.154 Y64.529 E23.73339
G1 X145.917 Y64.692 E23.74814
G1 X145.71 Y64.895 E23.763
G1 X145.54 Y65.13 E23.77787
G1 X145.416 Y65.39 E23.79263
G1 X145.335 Y65.665 E23.80733
G1 X145.303 Y65.95 E23.82203
G1 X145.318 Y66.239 E23.83686
G1 X145.384 Y66.52 E23.85166
G1 X145.495 Y66.786 E23.86643
G1 X145.65 Y67.029 E23.8812
G1 X145.842 Y67.241 E23.89586
G1 X146.067 Y67.419 E23.91057
G1 X146.321 Y67.556 E23.92536
G1 X146.594 Y67.649 E23.94015
G1 X146.878 Y67.693 E23.95488
G1 X147.165 Y67.691 E23.96959
G1 X147.45 Y67.638 E23.98445
G1 X147.721 Y67.537 E23.99927
G1 X147.971 Y67.394 E24.01404
G1 X148.015 Y67.357 E24.01698
G1 X148.16 Y67.236 E24.02666
G1 X148.192 Y67.209 E24.02881
G1 X148.27 Y67.117 E24.03499
G1 X148.378 Y66.992 E24.04346
G1 X148.403 Y66.95 E24.04596
G1 X148.4 Y66.993
G1 X148.384 Y67.214
G1 X148.375 Y67.252
G1 X148.33 Y67.438
G1 X148.294 Y67.526 E24.04702
G1 X148.249 Y67.636 E24.05099
G1 X148.134 Y67.824 E24.06229
G1 X147.991 Y67.991 E24.07356
G1 X147.824 Y68.134 E24.08483
G1 X147.636 Y68.249 E24.09613
G1 X147.438 Y68.33 E24.10709
G1 X147.214 Y68.385 E24.11891
G1 X146.979 Y68.403 E24.131
G1 X131.021 Y68.403 E24.94898
G1 X130.786 Y68.385 E24.96106
G1 X130.562 Y68.33 E24.97288
G1 X130.364 Y68.249 E24.98385
G1 X130.176 Y68.134 E24.99514
G1 X130.009 Y67.991 E25.00641
G1 X129.866 Y67.824 E25.01768
G1 X129.751 Y67.636 E25.02898
G1 X129.67 Y67.438 E25.03995
G1 X129.636 Y67.298 E25.04733
G1 X129.616 Y67.214 E25.05176
G1 X129.612 Y67.159 E25.05458
G1 X129.597 Y66.981 E25.06374
G1 X129.597 Y66.938 E25.06594
G1 X129.597 Y66.715 E25.07737
G1 X129.597 Y66.643 E25.08106
G1 X129.627 Y66.715
G1 X129.739 Y66.892
G1 X129.768 Y66.938
G1 X129.836 Y67.012
G1 X129.945 Y67.132 E25.08495
G1 X130.013 Y67.186 E25.08908
