;Generated with Cura_SteamEngine 19.05.04
;Cura19.05.04-Neutro64
M190 S50.000000
M140 S70.000000
M109 S210.000000
;Sliced at: Sat 26-09-2020 17:50:20
;Basic settings: Layer height: 0.15 Walls: 1 Fill: 10
;Print time: 3 hours 13 minutes
;Filament used: 14.311m 42.0g
;Filament cost: None
;M190 S70 ;Uncomment to add your own bed temperature line
;M109 S210 ;Uncomment to add your own temperature line
G21              ;metric values
G90              ;absolute positioning
M82              ;set extruder to absolute mode
M107             ;start with the fan off
G28 X0 Y0        ;move X/Y to min endstops
G28 Z0           ;move Z to min endstops
G1 Z1.50 F4800 ;move the platform down 1.5mm
G92 E0 B0                       ;zero the extruded length
G1 F200 E8 B2                   ;extrude 8mm of feed stock
G92 E0 B0                       ;zero the extruded length again
G1 F4800
;Put printing message on LCD screen
M117 Printing...

M305 S1 $57 	;check Command 
;Layer count: 242
;LAYER:0
M106 S255 $59
G0 F4800 X102.039 Y121.422 Z0.300 E 19.78198 B0.00000 $84
G92 E0 B0 $75
G92 E0.5 B0.5 $75
G92 E0 B0 $75
;TYPE:WALL-INNER0
G1 F1800 X200.706 Y121.422 E6.76846 $91
G1 X200.706 Y140.090 E8.04907 $49
G1 X187.206 Y140.090 E8.97515 $61
G1 X187.206 Y176.589 E11.47895 $5
G1 X117.539 Y176.589 E16.25804 $12
G1 X117.539 Y140.090 E18.76183 $10
G1 X102.039 Y140.090 E19.82512 $13
G1 X102.039 Y121.422 E21.10573 $0
G0 F4800 X101.539 Y120.922 $25
;TYPE:WALL-OUTER
G1 F1800 X201.206 Y120.922 E27.94279 $106
G1 X201.206 Y140.590 E29.29199 $3
G1 X187.706 Y140.590 E30.21808 $10
G1 X187.706 Y177.089 E32.72187 $9
G1 X117.039 Y177.089 E37.56956 $12
G1 X117.039 Y140.590 E40.07336 $13
G1 X101.539 Y140.590 E41.13664 $9
G1 X101.539 Y120.922 E42.48585 $11
G1 F2400 E41.48585 $108
G0 F4800 X101.973 Y121.266 $17
G0 X117.514 Y140.115 $113
G0 X117.788 Y175.648 $127
;TYPE:SKIN
G1 F2400 E42.48585 B0 $61
G1 F1800 X118.478 Y176.338 E42.55279 $98
G0 F4800 X119.188 Y176.338 $28
G1 F1800 X117.788 Y174.938 E42.68861 $100
G0 F4800 X117.788 Y174.228 $22
G1 F1800 X119.898 Y176.338 E42.89331 $109
G0 F4800 X120.608 Y176.338 $25
G1 F1800 X117.788 Y173.518 E43.16688 $108
G0 F4800 X117.788 Y172.808 $24
G1 F1800 X121.318 Y176.338 E43.50934 $111
G0 F4800 X122.028 Y176.338 $31
G1 F1800 X117.788 Y172.098 E43.92068 $100
G0 F4800 X117.788 Y171.388 $24
G1 F1800 X122.738 Y176.338 E44.40090 $107
G0 F4800 X123.448 Y176.338 $28
G1 F1800 X117.788 Y170.678 E44.95000 $96
G0 F4800 X117.788 Y169.968 $21
G1 F1800 X124.158 Y176.338 E45.56797 $107
G0 F4800 X124.867 Y176.338 $26
G1 F1800 X117.788 Y169.258 E46.25478 $108
G0 F4800 X117.788 Y168.548 $26
G1 F1800 X125.577 Y176.338 E47.01047 $105
G0 F4800 X126.287 Y176.338 $28
G1 F1800 X117.788 Y167.838 E47.83504 $105
G0 F4800 X117.788 Y167.128 $23
G1 F1800 X126.997 Y176.338 E48.72848 $100
G0 F4800 X127.707 Y176.338 $16
G1 F1800 X117.788 Y166.418 E49.69081 $100
G0 F4800 X117.788 Y165.709 $16
G1 F1800 X128.417 Y176.338 E50.72197 $109
G0 F4800 X129.127 Y176.338 $26
G1 F1800 X117.788 Y164.999 E51.82201 $100
G0 F4800 X117.788 Y164.289 $28
G1 F1800 X129.837 Y176.338 E52.99093 $96
G0 F4800 X130.547 Y176.338 $16
G1 F1800 X117.788 Y163.579 E54.22872 $96
G0 F4800 X117.788 Y162.869 $30
G1 F1800 X131.257 Y176.338 E55.53540 $111
G0 F4800 X131.967 Y176.338 $31
G1 F1800 X117.788 Y162.159 E56.91096 $111
G0 F4800 X117.788 Y161.449 $19
G1 F1800 X132.677 Y176.338 E58.35539 $105
G0 F4800 X133.387 Y176.338 $25
G1 F1800 X117.788 Y160.739 E59.86871 $101
G0 F4800 X117.788 Y160.029 $16
G1 F1800 X134.097 Y176.338 E61.45091 $109
G0 F4800 X134.807 Y176.338 $29
G1 F1800 X117.788 Y159.319 E63.10198 $97
G0 F4800 X117.788 Y158.609 $31
G1 F1800 X135.517 Y176.338 E64.82194 $107
G0 F4800 X136.226 Y176.338 $22
G1 F1800 X117.788 Y157.899 E66.61072 $106
G0 F4800 X117.788 Y157.189 $31
G1 F1800 X136.936 Y176.338 E68.46839 $109
G0 F4800 X137.646 Y176.338 $21
G1 F1800 X117.788 Y156.479 E70.39494 $111
G0 F4800 X117.788 Y155.769 $21
G1 F1800 X138.356 Y176.338 E72.39036 $107
G0 F4800 X139.066 Y176.338 $31
G1 F1800 X117.788 Y155.060 E74.45462 $102
G0 F4800 X117.788 Y154.350 $26
G1 F1800 X139.776 Y176.338 E76.58776 $108
G0 F4800 X140.486 Y176.338 $27
G1 F1800 X117.788 Y153.640 E78.78977 $111
G0 F4800 X117.788 Y152.930 $16
G1 F1800 X141.196 Y176.338 E81.06067 $111
G0 F4800 X141.906 Y176.338 $31
G1 F1800 X117.788 Y152.220 E83.40044 $106
G0 F4800 X117.788 Y151.510 $29
G1 F1800 X142.616 Y176.338 E85.80910 $96
G0 F4800 X143.326 Y176.338 $21
G1 F1800 X117.788 Y150.800 E88.28664 $97
G0 F4800 X117.788 Y150.090 $17
G1 F1800 X144.036 Y176.338 E90.83305 $107
G0 F4800 X144.746 Y176.338 $16
G1 F1800 X117.788 Y149.380 E93.44834 $97
G0 F4800 X117.788 Y148.670 $16
G1 F1800 X145.456 Y176.338 E96.13252 $100
G0 F4800 X146.166 Y176.338 $22
G1 F1800 X117.788 Y147.960 E98.88557 $104
G0 F4800 X117.788 Y147.250 $25
G1 F1800 X146.875 Y176.338 E101.70746 $80
G0 F4800 X147.585 Y176.338 $30
G1 F1800 X117.788 Y146.540 E104.59822 $80
G0 F4800 X117.788 Y145.830 $23
G1 F1800 X148.295 Y176.338 E107.55787 $86
G0 F4800 X149.005 Y176.338 $29
G1 F1800 X117.788 Y145.120 E110.58639 $81
G0 F4800 X117.788 Y144.411 $25
G1 F1800 X149.715 Y176.338 E113.68375 $88
G0 F4800 X150.425 Y176.338 $19
G1 F1800 X117.788 Y143.701 E116.84998 $81
G0 F4800 X117.788 Y142.991 $26
G1 F1800 X151.135 Y176.338 E120.08510 $86
G0 F4800 X151.845 Y176.338 $24
G1 F1800 X117.788 Y142.281 E123.38909 $84
G0 F4800 X117.788 Y141.571 $27
G1 F1800 X152.555 Y176.338 E126.76197 $83
G0 F4800 X153.265 Y176.338 $18
G1 F1800 X117.788 Y140.861 E130.20372 $95
G0 F4800 X117.788 Y140.151 $28
G1 F1800 X153.975 Y176.338 E133.71436 $81
G0 F4800 X154.685 Y176.338 $31
G1 F1800 X102.289 Y123.942 E138.79748 $83
G0 F4800 X102.289 Y124.652 $26
G1 F1800 X117.476 Y139.839 E140.27083 $83
G0 F4800 X116.766 Y139.839 $20
G1 F1800 X102.289 Y125.362 E141.67530 $81
G0 F4800 X102.289 Y126.072 $28
G1 F1800 X116.056 Y139.839 E143.01089 $89
G0 F4800 X115.346 Y139.839 $17
G1 F1800 X102.289 Y126.782 E144.27759 $84
G0 F4800 X102.289 Y127.492 $23
G1 F1800 X114.636 Y139.839 E145.47542 $93
G0 F4800 X113.926 Y139.839 $27
G1 F1800 X102.289 Y128.201 E146.60442 $92
G0 F4800 X102.289 Y128.911 $30
G1 F1800 X113.216 Y139.839 E147.66454 $91
G0 F4800 X112.507 Y139.839 $21
G1 F1800 X102.289 Y129.621 E148.65582 $93
G0 F4800 X102.289 Y130.331 $31
G1 F1800 X111.797 Y139.839 E149.57823 $85
G0 F4800 X111.087 Y139.839 $27
G1 F1800 X102.289 Y131.041 E150.43175 $85
G0 F4800 X102.289 Y131.751 $28
G1 F1800 X110.377 Y139.839 E151.21640 $93
G0 F4800 X109.667 Y139.839 $26
G1 F1800 X102.289 Y132.461 E151.93217 $91
G0 F4800 X102.289 Y133.171 $26
G1 F1800 X108.957 Y139.839 E152.57905 $80
G0 F4800 X108.247 Y139.839 $29
G1 F1800 X102.289 Y133.881 E153.15706 $81
G0 F4800 X102.289 Y134.591 $23
G1 F1800 X107.537 Y139.839 E153.66619 $84
G0 F4800 X106.827 Y139.839 $31
G1 F1800 X102.289 Y135.301 E154.10644 $81
G0 F4800 X102.289 Y136.011 $24
G1 F1800 X106.117 Y139.839 E154.47781 $87
G0 F4800 X105.407 Y139.839 $18
G1 F1800 X102.289 Y136.721 E154.78029 $87
G0 F4800 X102.289 Y137.431 $31
G1 F1800 X104.697 Y139.839 E155.01390 $93
G0 F4800 X103.987 Y139.839 $17
G1 F1800 X102.289 Y138.141 E155.17863 $87
G0 F4800 X102.289 Y138.851 $26
G1 F1800 X103.277 Y139.839 E155.27448 $86
G0 F4800 X102.567 Y139.839 $18
G1 F1800 X102.289 Y139.560 E155.30150 $93
G0 F4800 X102.289 Y123.232 $31
G1 F1800 X155.395 Y176.338 E160.45351 $84
G0 F4800 X156.105 Y176.338 $18
G1 F1800 X102.289 Y122.522 E165.67440 $84
G0 F4800 X102.289 Y121.812 $21
G1 F1800 X156.815 Y176.338 E170.96416 $95
G0 F4800 X157.525 Y176.338 $21
G1 F1800 X102.858 Y121.671 E176.26761 $83
G0 F4800 X103.568 Y121.671 $23
G1 F1800 X158.234 Y176.338 E181.57101 $88
G0 F4800 X158.944 Y176.338 $17
G1 F1800 X104.278 Y121.671 E186.87441 $88
G0 F4800 X104.988 Y121.671 $18
G1 F1800 X159.654 Y176.338 E192.17781 $83
G0 F4800 X160.364 Y176.338 $18
G1 F1800 X105.698 Y121.671 E197.48120 $82
G0 F4800 X106.408 Y121.671 $21
G1 F1800 X161.074 Y176.338 E202.78460 $83
G0 F4800 X161.784 Y176.338 $25
G1 F1800 X107.118 Y121.671 E208.08800 $85
G0 F4800 X107.828 Y121.671 $26
G1 F1800 X162.494 Y176.338 E213.39140 $88
G0 F4800 X163.204 Y176.338 $22
G1 F1800 X108.538 Y121.671 E218.69480 $94
G0 F4800 X109.247 Y121.671 $23
G1 F1800 X163.914 Y176.338 E223.99824 $94
G0 F4800 X164.624 Y176.338 $23
G1 F1800 X109.957 Y121.671 E229.30169 $86
G0 F4800 X110.667 Y121.671 $25
G1 F1800 X165.334 Y176.338 E234.60514 $94
G0 F4800 X166.044 Y176.338 $21
G1 F1800 X111.377 Y121.671 E239.90858 $87
G0 F4800 X112.087 Y121.671 $19
G1 F1800 X166.754 Y176.338 E245.21203 $93
G0 F4800 X167.464 Y176.338 $18
G1 F1800 X112.797 Y121.671 E250.51548 $80
G0 F4800 X113.507 Y121.671 $31
G1 F1800 X168.174 Y176.338 E255.81892 $94
G0 F4800 X168.883 Y176.338 $24
G1 F1800 X114.217 Y121.671 E261.12232 $84
G0 F4800 X114.927 Y121.671 $22
G1 F1800 X169.593 Y176.338 E266.42572 $94
G0 F4800 X170.303 Y176.338 $18
G1 F1800 X115.637 Y121.671 E271.72912 $93
G0 F4800 X116.347 Y121.671 $24
G1 F1800 X171.013 Y176.338 E277.03252 $90
G0 F4800 X171.723 Y176.338 $21
G1 F1800 X117.057 Y121.671 E282.33591 $81
G0 F4800 X117.767 Y121.671 $31
G1 F1800 X172.433 Y176.338 E287.63931 $88
G0 F4800 X173.143 Y176.338 $23
G1 F1800 X118.477 Y121.671 E292.94271 $93
G0 F4800 X119.187 Y121.671 $25
G1 F1800 X173.853 Y176.338 E298.24611 $83
G0 F4800 X174.563 Y176.338 $22
G1 F1800 X119.897 Y121.671 E303.54951 $82
G0 F4800 X120.606 Y121.671 $29
G1 F1800 X175.273 Y176.338 E308.85295 $86
G0 F4800 X175.983 Y176.338 $21
G1 F1800 X121.316 Y121.671 E314.15640 $87
G0 F4800 X122.026 Y121.671 $27
G1 F1800 X176.693 Y176.338 E319.45985 $89
G0 F4800 X177.403 Y176.338 $18
G1 F1800 X122.736 Y121.671 E324.76329 $94
G0 F4800 X123.446 Y121.671 $24
G1 F1800 X178.113 Y176.338 E330.06674 $85
G0 F4800 X178.823 Y176.338 $19
G1 F1800 X124.156 Y121.671 E335.37019 $93
G0 F4800 X124.866 Y121.671 $17
G1 F1800 X179.532 Y176.338 E340.67358 $88
G0 F4800 X180.242 Y176.338 $25
G1 F1800 X125.576 Y121.671 E345.97698 $88
G0 F4800 X126.286 Y121.671 $23
G1 F1800 X180.952 Y176.338 E351.28038 $90
G0 F4800 X181.662 Y176.338 $30
G1 F1800 X126.996 Y121.671 E356.58378 $83
G0 F4800 X127.706 Y121.671 $27
G1 F1800 X182.372 Y176.338 E361.88718 $92
G0 F4800 X183.082 Y176.338 $20
G1 F1800 X128.416 Y121.671 E367.19057 $81
G0 F4800 X129.126 Y121.671 $17
G1 F1800 X183.792 Y176.338 E372.49397 $91
G0 F4800 X184.502 Y176.338 $30
G1 F1800 X129.836 Y121.671 E377.79737 $88
G0 F4800 X130.546 Y121.671 $27
G1 F1800 X185.212 Y176.338 E383.10077 $95
G0 F4800 X185.922 Y176.338 $17
G1 F1800 X131.255 Y121.671 E388.40422 $83
G0 F4800 X131.965 Y121.671 $23
G1 F1800 X186.632 Y176.338 E393.70766 $90
G0 F4800 X186.955 Y175.951 $20
G1 F1800 X132.675 Y121.671 E398.97356 $89
G0 F4800 X133.385 Y121.671 $17
G1 F1800 X186.955 Y175.241 E404.17059 $91
G0 F4800 X186.955 Y174.531 $31
G1 F1800 X134.095 Y121.671 E409.29873 $81
G0 F4800 X134.805 Y121.671 $21
G1 F1800 X186.955 Y173.821 E414.35799 $91
G0 F4800 X186.955 Y173.111 $30
G1 F1800 X135.515 Y121.671 E419.34838 $95
G0 F4800 X136.225 Y121.671 $31
G1 F1800 X186.955 Y172.401 E424.26988 $91
G0 F4800 X186.955 Y171.691 $19
G1 F1800 X136.935 Y121.671 E429.12251 $80
G0 F4800 X137.645 Y121.671 $28
G1 F1800 X186.955 Y170.981 E433.90625 $95
G0 F4800 X186.955 Y170.272 $27
G1 F1800 X138.355 Y121.671 E438.62116 $85
G0 F4800 X139.065 Y121.671 $22
G1 F1800 X186.955 Y169.562 E443.26720 $88
G0 F4800 X186.955 Y168.852 $26
G1 F1800 X139.775 Y121.671 E447.84435 $86
G0 F4800 X140.485 Y121.671 $18
G1 F1800 X186.955 Y168.142 E452.35262 $94
G0 F4800 X186.955 Y167.432 $31
G1 F1800 X141.195 Y121.671 E456.79202 $81
G0 F4800 X141.905 Y121.671 $22
G1 F1800 X186.955 Y166.722 E461.16253 $83
G0 F4800 X186.955 Y166.012 $24
G1 F1800 X142.614 Y121.671 E465.46422 $84
G0 F4800 X143.324 Y121.671 $29
G1 F1800 X186.955 Y165.302 E469.69702 $87
G0 F4800 X186.955 Y164.592 $23
G1 F1800 X144.034 Y121.671 E473.86094 $84
G0 F4800 X144.744 Y121.671 $24
G1 F1800 X186.955 Y163.882 E477.95599 $94
G0 F4800 X186.955 Y163.172 $26
G1 F1800 X145.454 Y121.671 E481.98215 $94
G0 F4800 X146.164 Y121.671 $30
G1 F1800 X186.955 Y162.462 E485.93944 $90
G0 F4800 X186.955 Y161.752 $28
G1 F1800 X146.874 Y121.671 E489.82784 $93
G0 F4800 X147.584 Y121.671 $21
G1 F1800 X186.955 Y161.042 E493.64737 $90
G0 F4800 X186.955 Y160.332 $31
G1 F1800 X148.294 Y121.671 E497.39801 $90
G0 F4800 X149.004 Y121.671 $22
G1 F1800 X186.955 Y159.622 E501.07978 $91
G0 F4800 X186.955 Y158.913 $29
G1 F1800 X149.714 Y121.671 E504.69272 $86
G0 F4800 X150.424 Y121.671 $24
G1 F1800 X186.955 Y158.203 E508.23677 $82
G0 F4800 X186.955 Y157.493 $23
G1 F1800 X151.134 Y121.671 E511.71195 $92
G0 F4800 X151.844 Y121.671 $19
G1 F1800 X186.955 Y156.783 E515.11824 $84
G0 F4800 X186.955 Y156.073 $28
G1 F1800 X152.554 Y121.671 E518.45566 $91
G0 F4800 X153.263 Y121.671 $30
G1 F1800 X186.955 Y155.363 E521.72424 $83
G0 F4800 X186.955 Y154.653 $26
G1 F1800 X153.973 Y121.671 E524.92395 $92
G0 F4800 X154.683 Y121.671 $19
G1 F1800 X186.955 Y153.943 E528.05477 $82
G0 F4800 X186.955 Y153.233 $31
G1 F1800 X155.393 Y121.671 E531.11672 $93
G0 F4800 X156.103 Y121.671 $30
G1 F1800 X186.955 Y152.523 E534.10978 $82
G0 F4800 X186.955 Y151.813 $21
G1 F1800 X156.813 Y121.671 E537.03397 $86
G0 F4800 X157.523 Y121.671 $25
G1 F1800 X186.955 Y151.103 E539.88928 $94
G0 F4800 X186.955 Y150.393 $23
G1 F1800 X158.233 Y121.671 E542.67570 $95
G0 F4800 X158.943 Y121.671 $28
G1 F1800 X186.955 Y149.683 E545.39325 $94
G0 F4800 X186.955 Y148.973 $26
G1 F1800 X159.653 Y121.671 E548.04192 $91
G0 F4800 X160.363 Y121.671 $31
G1 F1800 X186.955 Y148.264 E550.62175 $95
G0 F4800 X186.955 Y147.554 $28
G1 F1800 X161.073 Y121.671 E553.13271 $86
G0 F4800 X161.783 Y121.671 $20
G1 F1800 X186.955 Y146.844 E555.57479 $83
G0 F4800 X186.955 Y146.134 $31
G1 F1800 X162.493 Y121.671 E557.94798 $86
G0 F4800 X163.203 Y121.671 $27
G1 F1800 X186.955 Y145.424 E560.25230 $82
G0 F4800 X186.955 Y144.714 $25
G1 F1800 X163.913 Y121.671 E562.48774 $87
G0 F4800 X164.622 Y121.671 $27
G1 F1800 X186.955 Y144.004 E564.65435 $86
G0 F4800 X186.955 Y143.294 $19
G1 F1800 X165.332 Y121.671 E566.75207 $83
G0 F4800 X166.042 Y121.671 $25
G1 F1800 X186.955 Y142.584 E568.78092 $84
G0 F4800 X186.955 Y141.874 $21
G1 F1800 X166.752 Y121.671 E570.74089 $80
G0 F4800 X167.462 Y121.671 $30
G1 F1800 X186.955 Y141.164 E572.63197 $88
G0 F4800 X186.955 Y140.454 $26
G1 F1800 X168.172 Y121.671 E574.45418 $80
G0 F4800 X168.882 Y121.671 $19
G1 F1800 X187.050 Y139.839 E576.21673 $84
G0 F4800 X187.760 Y139.839 $26
G1 F1800 X169.592 Y121.671 E577.97927 $86
G0 F4800 X170.302 Y121.671 $25
G1 F1800 X188.470 Y139.839 E579.74182 $91
G0 F4800 X189.180 Y139.839 $28
G1 F1800 X171.012 Y121.671 E581.50436 $93
G0 F4800 X171.722 Y121.671 $30
G1 F1800 X189.889 Y139.839 E583.26686 $81
G0 F4800 X190.599 Y139.839 $24
G1 F1800 X172.432 Y121.671 E585.02935 $85
G0 F4800 X173.142 Y121.671 $28
G1 F1800 X191.309 Y139.839 E586.79185 $80
G0 F4800 X192.019 Y139.839 $23
G1 F1800 X173.852 Y121.671 E588.55434 $93
G0 F4800 X174.562 Y121.671 $29
G1 F1800 X192.729 Y139.839 E590.31684 $88
G0 F4800 X193.439 Y139.839 $16
G1 F1800 X175.271 Y121.671 E592.07939 $92
G0 F4800 X175.981 Y121.671 $29
G1 F1800 X194.149 Y139.839 E593.84193 $82
G0 F4800 X194.859 Y139.839 $29
G1 F1800 X176.691 Y121.671 E595.60447 $87
G0 F4800 X177.401 Y121.671 $26
G1 F1800 X195.569 Y139.839 E597.36702 $86
G0 F4800 X196.279 Y139.839 $23
G1 F1800 X178.111 Y121.671 E599.12956 $82
G0 F4800 X178.821 Y121.671 $27
G1 F1800 X196.989 Y139.839 E600.89211 $89
G0 F4800 X197.699 Y139.839 $28
G1 F1800 X179.531 Y121.671 E602.65465 $89
G0 F4800 X180.241 Y121.671 $16
G1 F1800 X198.409 Y139.839 E604.41720 $85
G0 F4800 X199.119 Y139.839 $29
