;Generated with Cura_SteamEngine 19.05.04
;Cura19.05.04-Neutro64
M190 S50.000000
M140 S70.000000
M109 S210.000000
;Sliced at: Sun 11-10-2020 00:58:59
;Basic settings: Layer height: 0.15 Walls: 1 Fill: 10
;Print time: 1 hour 6 minutes
;Filament used: 4.242m 12.0g
;Filament cost: None
;M190 S70 ;Uncomment to add your own bed temperature line
;M109 S210 ;Uncomment to add your own temperature line
G21              ;metric values
G90              ;absolute positioning
M82              ;set extruder to absolute mode
M107             ;start with the fan off
G28 X0 Y0        ;move X/Y to min endstops
G28 Z0           ;move Z to min endstops
G1 Z1.50 F4800 ;move the platform down 1.5mm
G92 E0 B0                       ;zero the extruded length
G1 F200 E8 B2                   ;extrude 8mm of feed stock
G92 E0 B0                       ;zero the extruded length again
G1 F4800
;Put printing message on LCD screen
M117 Printing...

M305 S1 $57 	;check Command 
;Layer count: 206
;LAYER:0
M106 S255 $59
G0 F4800 X140.085 Y150.716 Z0.300 E 25.66411 B0.00000 $83
G92 E0 B0 $75
G92 E0.5 B0.5 $75
G92 E0 B0 $75
;TYPE:WALL-INNER0
G1 F1800 X158.752 Y150.716 E1.28054 $81
G1 X158.752 Y164.383 E2.21808 $58
G1 X140.085 Y164.383 E3.49862 $61
G1 X140.085 Y150.716 E4.43616 $50
G0 F4800 X139.585 Y150.216 $30
;TYPE:WALL-OUTER
G1 F1800 X159.252 Y150.216 E5.78530 $86
G1 X159.252 Y164.883 E6.79144 $61
G1 X139.585 Y164.883 E8.14058 $63
G1 X139.585 Y150.216 E9.14672 $49
G0 F4800 X140.019 Y150.560 $22
G0 X140.334 Y163.407 $112
;TYPE:SKIN
G1 F1800 X141.059 Y164.132 E9.21705 $80
G0 F4800 X141.769 Y164.132 $19
G1 F1800 X140.334 Y162.697 E9.35627 $83
G0 F4800 X140.334 Y161.987 $29
G1 F1800 X142.479 Y164.132 E9.56436 $86
G0 F4800 X143.189 Y164.132 $25
G1 F1800 X140.334 Y161.277 E9.84134 $85
G0 F4800 X140.334 Y160.567 $30
G1 F1800 X143.899 Y164.132 E10.18719 $105
G0 F4800 X144.608 Y164.132 $16
G1 F1800 X140.334 Y159.857 E10.60188 $99
G0 F4800 X140.334 Y159.147 $18
G1 F1800 X145.318 Y164.132 E11.08544 $103
G0 F4800 X146.028 Y164.132 $22
G1 F1800 X140.334 Y158.437 E11.63789 $109
G0 F4800 X140.334 Y157.727 $28
G1 F1800 X146.738 Y164.132 E12.25921 $97
G0 F4800 X147.448 Y164.132 $21
G1 F1800 X140.334 Y157.018 E12.94937 $107
G0 F4800 X140.334 Y156.308 $20
G1 F1800 X148.158 Y164.132 E13.70840 $104
G0 F4800 X148.868 Y164.132 $20
G1 F1800 X140.334 Y155.598 E14.53631 $96
G0 F4800 X140.334 Y154.888 $21
G1 F1800 X149.578 Y164.132 E15.43311 $102
G0 F4800 X150.288 Y164.132 $25
G1 F1800 X140.334 Y154.178 E16.39878 $102
G0 F4800 X140.334 Y153.468 $16
G1 F1800 X150.998 Y164.132 E17.43334 $105
G0 F4800 X151.708 Y164.132 $21
G1 F1800 X140.334 Y152.758 E18.53677 $103
G0 F4800 X140.334 Y152.048 $23
G1 F1800 X152.418 Y164.132 E19.70908 $101
G0 F4800 X153.128 Y164.132 $19
G1 F1800 X140.334 Y151.338 E20.95028 $107
G0 F4800 X140.671 Y150.965 $23
G1 F1800 X153.838 Y164.132 E22.22766 $99
G0 F4800 X154.548 Y164.132 $22
G1 F1800 X141.381 Y150.965 E23.50504 $102
G0 F4800 X142.091 Y150.965 $29
G1 F1800 X155.258 Y164.132 E24.78241 $96
G0 F4800 X155.967 Y164.132 $22
G1 F1800 X142.801 Y150.965 E26.05974 $104
G0 F4800 X143.511 Y150.965 $17
G1 F1800 X156.677 Y164.132 E27.33708 $110
G0 F4800 X157.387 Y164.132 $16
G1 F1800 X144.221 Y150.965 E28.61441 $97
G0 F4800 X144.931 Y150.965 $24
G1 F1800 X158.097 Y164.132 E29.89174 $106
G0 F4800 X158.502 Y163.826 $31
G1 F1800 X145.641 Y150.965 E31.13943 $96
G0 F4800 X146.351 Y150.965 $22
G1 F1800 X158.502 Y163.116 E32.31824 $103
G0 F4800 X158.502 Y162.406 $16
G1 F1800 X147.061 Y150.965 E33.42818 $111
G0 F4800 X147.771 Y150.965 $17
G1 F1800 X158.502 Y161.696 E34.46923 $106
G0 F4800 X158.502 Y160.987 $22
G1 F1800 X148.481 Y150.965 E35.44145 $107
G0 F4800 X149.191 Y150.965 $23
G1 F1800 X158.502 Y160.277 E36.34480 $99
G0 F4800 X158.502 Y159.567 $30
G1 F1800 X149.900 Y150.965 E37.17931 $97
G0 F4800 X150.610 Y150.965 $17
G1 F1800 X158.502 Y158.857 E37.94494 $110
G0 F4800 X158.502 Y158.147 $25
G1 F1800 X151.320 Y150.965 E38.64169 $110
G0 F4800 X152.030 Y150.965 $23
G1 F1800 X158.501 Y157.436 E39.26947 $109
G0 F4800 X158.501 Y156.726 $21
G1 F1800 X152.740 Y150.965 E39.82836 $101
G0 F4800 X153.450 Y150.965 $20
G1 F1800 X158.501 Y156.016 E40.31838 $107
G0 F4800 X158.501 Y155.306 $16
G1 F1800 X154.160 Y150.965 E40.73951 $103
G0 F4800 X154.870 Y150.965 $29
G1 F1800 X158.501 Y154.596 E41.09177 $108
G0 F4800 X158.501 Y153.886 $21
G1 F1800 X155.580 Y150.965 E41.37515 $97
G0 F4800 X156.290 Y150.965 $27
G1 F1800 X158.501 Y153.177 E41.58969 $99
G0 F4800 X158.501 Y152.467 $23
G1 F1800 X157.000 Y150.965 E41.73536 $111
G0 F4800 X157.710 Y150.965 $23
G1 F1800 X158.501 Y151.757 E41.81215 $97
G0 F4800 X158.501 Y151.047 $18
G1 F1800 X158.420 Y150.965 E41.82005 $109
G1 F2400 E40.82005 $102
G0 F4800 X144.216 Y174.715 $25
;TYPE:WALL-INNER0
G1 F2400 E41.82005 B0 $53
G1 F1800 X172.884 Y174.715 E43.78665 $111
G1 X172.884 Y193.383 E45.06726 $11
G1 X144.216 Y193.383 E47.03385 $5
G1 X144.216 Y174.715 E48.31446 $1
G0 F4800 X143.716 Y174.215 $30
;TYPE:WALL-OUTER
G1 F1800 X173.384 Y174.215 E50.34966 $102
G1 X173.384 Y193.883 E51.69886 $3
G1 X143.716 Y193.883 E53.73406 $2
G1 X143.716 Y174.215 E55.08326 $1
G0 F4800 X144.150 Y174.559 $18
G0 X144.465 Y192.386 $119
;TYPE:SKIN
G1 F1800 X145.211 Y193.132 E55.15564 $105
G0 F4800 X145.921 Y193.132 $29
G1 F1800 X144.465 Y191.676 E55.29689 $103
G0 F4800 X144.465 Y190.966 $27
G1 F1800 X146.631 Y193.132 E55.50702 $111
G0 F4800 X147.341 Y193.132 $19
G1 F1800 X144.465 Y190.256 E55.78603 $102
G0 F4800 X144.465 Y189.546 $29
G1 F1800 X148.051 Y193.132 E56.13392 $104
G0 F4800 X148.761 Y193.132 $26
G1 F1800 X144.465 Y188.836 E56.55069 $101
G0 F4800 X144.465 Y188.126 $30
G1 F1800 X149.471 Y193.132 E57.03634 $102
G0 F4800 X150.180 Y193.132 $26
G1 F1800 X144.465 Y187.416 E57.59082 $108
G0 F4800 X144.465 Y186.706 $20
G1 F1800 X150.890 Y193.132 E58.21419 $111
G0 F4800 X151.600 Y193.132 $20
G1 F1800 X144.465 Y185.996 E58.90643 $106
G0 F4800 X144.465 Y185.286 $26
G1 F1800 X152.310 Y193.132 E59.66755 $103
G0 F4800 X153.020 Y193.132 $18
G1 F1800 X144.465 Y184.576 E60.49755 $96
G0 F4800 X144.465 Y183.866 $24
G1 F1800 X153.730 Y193.132 E61.39643 $103
G0 F4800 X154.440 Y193.132 $23
G1 F1800 X144.465 Y183.156 E62.36419 $96
G0 F4800 X144.465 Y182.446 $23
G1 F1800 X155.150 Y193.132 E63.40083 $103
G0 F4800 X155.860 Y193.132 $24
G1 F1800 X144.465 Y181.737 E64.50630 $108
G0 F4800 X144.465 Y181.027 $23
G1 F1800 X156.570 Y193.132 E65.68065 $102
G0 F4800 X157.280 Y193.132 $30
G1 F1800 X144.465 Y180.317 E66.92388 $97
G0 F4800 X144.465 Y179.607 $20
G1 F1800 X157.990 Y193.132 E68.23599 $97
G0 F4800 X158.700 Y193.132 $28
G1 F1800 X144.465 Y178.897 E69.61698 $98
G0 F4800 X144.465 Y178.187 $26
G1 F1800 X159.410 Y193.132 E71.06685 $107
G0 F4800 X160.120 Y193.132 $19
G1 F1800 X144.465 Y177.477 E72.58560 $107
G0 F4800 X144.465 Y176.767 $28
G1 F1800 X160.830 Y193.132 E74.17323 $99
G0 F4800 X161.539 Y193.132 $30
G1 F1800 X144.465 Y176.057 E75.82969 $105
G0 F4800 X144.465 Y175.347 $25
G1 F1800 X162.249 Y193.132 E77.55503 $100
G0 F4800 X162.959 Y193.132 $23
G1 F1800 X144.792 Y174.964 E79.31752 $107
G0 F4800 X145.502 Y174.964 $18
G1 F1800 X163.669 Y193.132 E81.08002 $102
G0 F4800 X164.379 Y193.132 $25
G1 F1800 X146.212 Y174.964 E82.84251 $104
G0 F4800 X146.921 Y174.964 $28
G1 F1800 X165.089 Y193.132 E84.60506 $98
G0 F4800 X165.799 Y193.132 $18
G1 F1800 X147.631 Y174.964 E86.36760 $102
G0 F4800 X148.341 Y174.964 $30
G1 F1800 X166.509 Y193.132 E88.13015 $99
G0 F4800 X167.219 Y193.132 $29
G1 F1800 X149.051 Y174.964 E89.89269 $111
G0 F4800 X149.761 Y174.964 $25
G1 F1800 X167.929 Y193.132 E91.65524 $98
G0 F4800 X168.639 Y193.132 $20
G1 F1800 X150.471 Y174.964 E93.41778 $107
G0 F4800 X151.181 Y174.964 $24
G1 F1800 X169.349 Y193.132 E95.18033 $109
G0 F4800 X170.059 Y193.132 $29
G1 F1800 X151.891 Y174.964 E96.94287 $96
G0 F4800 X152.601 Y174.964 $20
G1 F1800 X170.769 Y193.132 E98.70542 $99
G0 F4800 X171.479 Y193.132 $26
G1 F1800 X153.311 Y174.964 E100.46796 $85
G0 F4800 X154.021 Y174.964 $22
G1 F1800 X172.188 Y193.132 E102.23046 $93
G0 F4800 X172.634 Y192.867 $26
G1 F1800 X154.731 Y174.964 E103.96729 $94
G0 F4800 X155.441 Y174.964 $21
G1 F1800 X172.634 Y192.157 E105.63525 $92
G0 F4800 X172.634 Y191.447 $23
G1 F1800 X156.151 Y174.964 E107.23432 $95
G0 F4800 X156.861 Y174.964 $24
G1 F1800 X172.634 Y190.737 E108.76452 $86
G0 F4800 X172.634 Y190.027 $20
G1 F1800 X157.570 Y174.964 E110.22589 $95
G0 F4800 X158.280 Y174.964 $19
G1 F1800 X172.634 Y189.317 E111.61837 $89
G0 F4800 X172.634 Y188.608 $22
G1 F1800 X158.990 Y174.964 E112.94203 $88
G0 F4800 X159.700 Y174.964 $31
G1 F1800 X172.634 Y187.898 E114.19680 $83
G0 F4800 X172.634 Y187.188 $22
G1 F1800 X160.410 Y174.964 E115.38270 $83
G0 F4800 X161.120 Y174.964 $16
G1 F1800 X172.634 Y186.478 E116.49971 $86
G0 F4800 X172.634 Y185.768 $28
G1 F1800 X161.830 Y174.964 E117.54785 $91
G0 F4800 X162.540 Y174.964 $17
G1 F1800 X172.634 Y185.058 E118.52710 $94
G0 F4800 X172.634 Y184.348 $27
G1 F1800 X163.250 Y174.964 E119.43748 $92
G0 F4800 X163.960 Y174.964 $30
G1 F1800 X172.634 Y183.638 E120.27898 $94
G0 F4800 X172.634 Y182.928 $17
G1 F1800 X164.670 Y174.964 E121.05159 $82
G0 F4800 X165.380 Y174.964 $28
G1 F1800 X172.634 Y182.218 E121.75533 $83
G0 F4800 X172.634 Y181.508 $28
G1 F1800 X166.090 Y174.964 E122.39019 $81
G0 F4800 X166.800 Y174.964 $28
G1 F1800 X172.634 Y180.798 E122.95617 $84
G0 F4800 X172.634 Y180.088 $16
G1 F1800 X167.510 Y174.964 E123.45326 $88
G0 F4800 X168.219 Y174.964 $16
G1 F1800 X172.634 Y179.378 E123.88153 $82
G0 F4800 X172.634 Y178.668 $31
G1 F1800 X168.929 Y174.964 E124.24092 $93
G0 F4800 X169.639 Y174.964 $23
G1 F1800 X172.634 Y177.958 E124.53143 $84
G0 F4800 X172.634 Y177.249 $23
G1 F1800 X170.349 Y174.964 E124.75310 $85
G0 F4800 X171.059 Y174.964 $30
G1 F1800 X172.634 Y176.539 E124.90590 $91
G0 F4800 X172.634 Y175.829 $25
G1 F1800 X171.769 Y174.964 E124.98982 $80
G0 F4800 X172.479 Y174.964 $27
G1 F1800 X172.634 Y175.119 E125.00485 $83
G1 F2400 E124.00485 $83
G0 F4800 X158.317 Y149.650 $26
;TYPE:SUPPORT
G1 F2400 E125.00485 B0 $0
G92 E0 B0 $75
G1 F1800 X158.317 Y144.350 E0.36357 $89
G0 F4800 X158.317 Y144.750 $22
G0 X159.850 Y144.986 $112
G0 X160.249 Y144.986 $120
G1 F1800 X155.349 Y144.986 E0.69971 $90
G0 F4800 X155.750 Y144.986 $25
G0 X155.750 Y148.319 $115
G0 X155.349 Y148.319 $127
G1 F1800 X160.249 Y148.319 E1.03585 $87
G1 F2400 E0.03585 $86
G0 F4800 X158.317 Y165.449 $30
G1 F2400 E1.03585 B0 $5
G1 F1800 X158.317 Y170.750 E1.39949 $81
G0 F4800 X158.317 Y170.350 $21
G0 X159.850 Y168.317 $124
G0 X160.249 Y168.317 $116
G1 F1800 X155.349 Y168.317 E1.73562 $82
G1 F2400 E0.73562 $88
G0 F4800 X174.982 Y189.950 $17
G1 F2400 E1.73562 B0 $11
G1 F1800 X174.982 Y194.750 E2.06490 $85
G0 F4800 X174.982 Y194.350 $23
G0 X174.350 Y191.648 $113
G0 X173.949 Y191.648 $116
G1 F1800 X180.449 Y191.648 E2.51079 $88
G0 F4800 X180.050 Y191.648 $19
G0 X178.315 Y190.350 $113
G0 X178.315 Y189.950 $115
G1 F1800 X178.315 Y194.750 E2.84007 $93
G1 F2400 E1.84007 $87
G0 F4800 X143.149 Y191.648 $21
G1 F2400 E2.84007 B0 $6
G1 F1800 X134.749 Y191.648 E3.41630 $95
G0 F4800 X135.150 Y191.648 $28
G0 X135.060 Y190.350 $121
G0 X134.986 Y189.950 $123
G1 F1800 X134.986 Y194.750 E3.74558 $84
G0 F4800 X135.060 Y194.350 $23
G0 X138.319 Y194.350 $125
G0 X138.319 Y194.750 $121
G1 F1800 X138.319 Y189.950 E4.07485 $84
G1 X141.652 Y189.950 E4.30349 $60
G1 X141.652 Y194.750 E4.63277 $52
G1 F2400 E3.63277 $89
G0 F4800 X158.317 Y149.650 $26
G1 F2400 E4.63277 B0 $12
G1 F1800 X158.317 Y144.350 E4.99634 $88
G0 F4800 X158.317 Y144.750 $22
G0 X159.850 Y144.986 $112
G0 X160.249 Y144.986 $120
G1 F1800 X155.349 Y144.986 E5.33248 $81
G0 F4800 X155.750 Y144.986 $25
G0 X155.750 Y148.319 $115
G0 X155.349 Y148.319 $127
G1 F1800 X160.249 Y148.319 E5.66861 $87
G1 F2400 E4.66861 $86
G0 F4800 X158.317 Y165.449 $30
G1 F2400 E5.66861 B0 $5
G1 F1800 X158.317 Y170.750 E6.03226 $93
G0 F4800 X158.317 Y170.350 $21
G0 X159.850 Y168.317 $124
G0 X160.249 Y168.317 $116
G1 F1800 X155.349 Y168.317 E6.36839 $87
G1 F2400 E5.36839 $95
G0 F4800 X174.982 Y189.950 $17
G1 F2400 E6.36839 B0 $14
G1 F1800 X174.982 Y194.750 E6.69767 $83
G0 F4800 X174.982 Y194.350 $23
G0 X174.350 Y191.648 $113
G0 X173.949 Y191.648 $116
G1 F1800 X180.449 Y191.648 E7.14356 $82
G0 F4800 X180.050 Y191.648 $19
G0 X178.315 Y190.350 $113
G0 X178.315 Y189.950 $115
G1 F1800 X178.315 Y194.750 E7.47284 $94
G1 F2400 E6.47284 $86
G0 F4800 X143.149 Y191.648 $21
G1 F2400 E7.47284 B0 $5
G1 F1800 X134.749 Y191.648 E8.04907 $94
G0 F4800 X135.150 Y191.648 $28
G0 X135.060 Y190.350 $121
G0 X134.986 Y189.950 $123
G1 F1800 X134.986 Y194.750 E8.37834 $95
G0 F4800 X135.060 Y194.350 $23
G0 X138.319 Y194.350 $125
G0 X138.319 Y194.750 $121
G1 F1800 X138.319 Y189.950 E8.70762 $82
G1 X141.652 Y189.950 E8.93626 $53
G1 X141.652 Y194.750 E9.26553 $57
;LAYER:1
G1 F2400 E8.26553 $82
G0 F4800 X144.216 Y193.383 Z0.450 $78
;TYPE:WALL-INNER0
G1 F2400 E9.26553 B0 $1
G1 F2520 X144.216 Y174.715 E9.84763 $93
G1 X172.884 Y174.715 E10.74154 $15
G1 X172.884 Y193.383 E11.32363 $8
G1 X144.216 Y193.383 E12.21754 $13
G0 F4800 X143.716 Y193.883 $18
;TYPE:WALL-OUTER
G1 F1920 X143.716 Y174.215 E12.83081 $99
G1 X173.384 Y174.215 E13.75590 $14
G1 X173.384 Y193.883 E14.36918 $14
G1 X143.716 Y193.883 E15.29427 $12
G1 F2400 E14.29427 $98
G0 F4800 X144.060 Y193.449 $25
G0 X172.129 Y193.132 $115
;TYPE:SKIN
G1 F2400 E15.29427 B0 $49
G1 F1740 X172.633 Y192.627 E15.31651 $103
G0 F4800 X172.633 Y191.917 $24
G1 F1740 X171.419 Y193.132 E15.37007 $111
G0 F4800 X170.709 Y193.132 $31
G1 F1740 X172.633 Y191.208 E15.45491 $96
G0 F4800 X172.633 Y190.498 $19
G1 F1740 X169.999 Y193.132 E15.57106 $101
G0 F4800 X169.289 Y193.132 $26
G1 F1740 X172.633 Y189.788 E15.71852 $96
G0 F4800 X172.633 Y189.078 $17
G1 F1740 X168.579 Y193.132 E15.89729 $110
G0 F4800 X167.869 Y193.132 $16
G1 F1740 X172.633 Y188.368 E16.10737 $99
G0 F4800 X172.633 Y187.658 $27
G1 F1740 X167.160 Y193.132 E16.34874 $111
G0 F4800 X166.450 Y193.132 $23
G1 F1740 X172.633 Y186.948 E16.62141 $103
G0 F4800 X172.633 Y186.238 $24
G1 F1740 X165.740 Y193.132 E16.92540 $111
G0 F4800 X165.030 Y193.132 $22
G1 F1740 X172.633 Y185.528 E17.26069 $100
G0 F4800 X172.633 Y184.818 $18
G1 F1740 X164.320 Y193.132 E17.62729 $111
G0 F4800 X163.610 Y193.132 $20
G1 F1740 X172.633 Y184.108 E18.02520 $98
G0 F4800 X172.633 Y183.398 $22
G1 F1740 X162.900 Y193.132 E18.45442 $101
G0 F4800 X162.190 Y193.132 $26
G1 F1740 X172.633 Y182.688 E18.91495 $110
G0 F4800 X172.633 Y181.978 $16
G1 F1740 X161.480 Y193.132 E19.40679 $109
G0 F4800 X160.770 Y193.132 $16
G1 F1740 X172.633 Y181.268 E19.92993 $110
G0 F4800 X172.633 Y180.559 $30
G1 F1740 X160.060 Y193.132 E20.48437 $108
G0 F4800 X159.350 Y193.132 $28
G1 F1740 X172.633 Y179.849 E21.07011 $100
G0 F4800 X172.633 Y179.139 $26
G1 F1740 X158.640 Y193.132 E21.68716 $96
G0 F4800 X157.930 Y193.132 $30
G1 F1740 X172.633 Y178.429 E22.33552 $105
G0 F4800 X172.633 Y177.719 $16
G1 F1740 X157.220 Y193.132 E23.01519 $109
G0 F4800 X156.511 Y193.132 $16
G1 F1740 X172.633 Y177.009 E23.72614 $101
G0 F4800 X172.633 Y176.299 $28
G1 F1740 X155.801 Y193.132 E24.46841 $98
G0 F4800 X155.091 Y193.132 $30
G1 F1740 X172.633 Y175.589 E25.24198 $108
G0 F4800 X172.548 Y174.964 $24
G1 F1740 X154.381 Y193.132 E26.04312 $105
G0 F4800 X153.671 Y193.132 $16
G1 F1740 X171.838 Y174.964 E26.84425 $110
G0 F4800 X171.129 Y174.964 $24
G1 F1740 X152.961 Y193.132 E27.64541 $108
G0 F4800 X152.251 Y193.132 $23
G1 F1740 X170.419 Y174.964 E28.44656 $100
G0 F4800 X169.709 Y174.964 $21
G1 F1740 X151.541 Y193.132 E29.24772 $105
G0 F4800 X150.831 Y193.132 $25
G1 F1740 X168.999 Y174.964 E30.04888 $104
G0 F4800 X168.289 Y174.964 $25
