;FLAVOR:RepRap
;TIME:4358
;Filament used: 5.77428m
;Layer height: 0.3
;Generated with Cura_SteamEngine 2.5.0-twosilly
M190 S50
M104 S220
M109 S220
G28 ;Home
G1 Z15.0 F6000 ;Move the platform down 15mm
;Prime the extruder
G92 E0
G1 F200 E10
G92 E0
;LAYER_COUNT:103
;LAYER:0
M107
G0 F3000 X154.153 Y81.33 Z0.3
;TYPE:SKIRT
G1 F1800 X154.57 Y80.66 E0.04124
G1 X155.053 Y80.037 E0.08243
G1 X155.453 Y79.606 E0.11315
G1 X155.673 Y79.386 E0.12941
G1 X156.258 Y78.857 E0.17063
G1 X156.894 Y78.391 E0.21182
G1 X157.574 Y77.991 E0.25305
G1 X158.291 Y77.661 E0.29429
G1 X159.037 Y77.407 E0.33547
G1 X159.805 Y77.228 E0.37668
G1 X160.588 Y77.129 E0.41792
G1 X161.374 Y77.11 E0.459
G1 X161.374 Y68.191 E0.92505
G1 X161.414 Y67.403 E0.96628
G1 X161.533 Y66.624 E1.00746
G1 X161.731 Y65.86 E1.0487
G1 X162.005 Y65.121 E1.08989
G1 X162.353 Y64.413 E1.13111
G1 X162.77 Y63.743 E1.17235
G1 X163.253 Y63.12 E1.21354
G1 X163.653 Y62.689 E1.24426
G1 X163.77 Y62.572 E1.25291
G1 X164.355 Y62.043 E1.29412
G1 X164.991 Y61.577 E1.33532
G1 X165.671 Y61.177 E1.37655
G1 X166.388 Y60.847 E1.41779
G1 X167.134 Y60.593 E1.45897
G1 X167.902 Y60.414 E1.50017
G1 X168.685 Y60.315 E1.54142
G1 X169.272 Y60.293 E1.57211
G1 X199.038 Y60.293 E3.12749
G1 X199.826 Y60.333 E3.16872
G1 X200.605 Y60.452 E3.2099
G1 X201.369 Y60.65 E3.25114
G1 X202.108 Y60.924 E3.29233
G1 X202.816 Y61.272 E3.33355
G1 X203.486 Y61.689 E3.37479
G1 X204.109 Y62.172 E3.41598
G1 X204.54 Y62.572 E3.4467
G1 X204.657 Y62.689 E3.45535
G1 X205.186 Y63.274 E3.49656
G1 X205.652 Y63.91 E3.53776
G1 X206.052 Y64.59 E3.57899
G1 X206.382 Y65.307 E3.62023
G1 X206.636 Y66.053 E3.66141
G1 X206.815 Y66.821 E3.70262
G1 X206.914 Y67.604 E3.74386
G1 X206.936 Y68.191 E3.77455
G1 X206.936 Y87.957 E4.8074
G1 X206.896 Y88.745 E4.84863
G1 X206.777 Y89.524 E4.88981
G1 X206.579 Y90.288 E4.93105
G1 X206.305 Y91.027 E4.97223
G1 X205.957 Y91.735 E5.01345
G1 X205.54 Y92.405 E5.05469
G1 X205.057 Y93.028 E5.09588
G1 X204.657 Y93.459 E5.12661
G1 X204.54 Y93.576 E5.13526
G1 X203.955 Y94.105 E5.17647
G1 X203.319 Y94.571 E5.21767
G1 X202.639 Y94.971 E5.25889
G1 X201.922 Y95.301 E5.30014
G1 X201.176 Y95.555 E5.34131
G1 X200.408 Y95.734 E5.38252
G1 X199.625 Y95.833 E5.42376
G1 X199.038 Y95.855 E5.45446
G1 X169.272 Y95.855 E7.00984
G1 X168.484 Y95.815 E7.05107
G1 X167.705 Y95.696 E7.09225
G1 X166.941 Y95.498 E7.13349
G1 X166.202 Y95.224 E7.17467
G1 X165.494 Y94.876 E7.2159
G1 X165.395 Y94.814 E7.222
G1 X165.325 Y94.863 E7.22646
G1 X164.636 Y95.248 E7.26771
G1 X163.913 Y95.561 E7.30887
G1 X163.161 Y95.8 E7.35011
G1 X162.389 Y95.961 E7.39131
G1 X161.604 Y96.043 E7.43256
G1 X160.815 Y96.045 E7.47378
G1 X160.031 Y95.967 E7.51495
G1 X159.258 Y95.811 E7.55616
G1 X158.504 Y95.577 E7.59741
G1 X157.779 Y95.267 E7.63862
G1 X157.088 Y94.886 E7.67985
G1 X156.44 Y94.437 E7.72104
G1 X155.686 Y93.775 E7.77347
G1 X155.453 Y93.542 E7.79069
G1 X154.924 Y92.957 E7.8319
G1 X154.458 Y92.321 E7.8731
G1 X154.058 Y91.641 E7.91433
G1 X153.728 Y90.924 E7.95557
G1 X153.474 Y90.178 E7.99675
G1 X153.295 Y89.41 E8.03796
G1 X153.196 Y88.627 E8.0792
G1 X153.174 Y88.04 E8.10989
G1 X153.174 Y85.108 E8.2631
G1 X153.214 Y84.32 E8.30433
G1 X153.333 Y83.541 E8.34551
G1 X153.531 Y82.777 E8.38675
G1 X153.805 Y82.038 E8.42793
G1 X154.153 Y81.33 E8.46915
G0 F3000 X154.551 Y81.436
G1 F1800 X154.967 Y80.791 E8.50926
G1 X155.448 Y80.192 E8.5494
G1 X155.735 Y79.888 E8.57125
G1 X155.955 Y79.668 E8.58751
G1 X156.526 Y79.154 E8.62765
G1 X157.147 Y78.702 E8.66779
G1 X157.812 Y78.317 E8.70794
G1 X158.513 Y78.003 E8.74807
G1 X159.243 Y77.763 E8.78823
G1 X159.994 Y77.601 E8.82837
G1 X160.757 Y77.518 E8.86848
G1 X161.526 Y77.514 E8.90866
G1 X161.773 Y77.539 E8.92163
G1 X161.773 Y68.191 E9.4101
G1 X161.813 Y67.424 E9.45024
G1 X161.932 Y66.665 E9.49038
G1 X162.13 Y65.923 E9.53051
G1 X162.404 Y65.205 E9.57067
G1 X162.751 Y64.519 E9.61084
G1 X163.167 Y63.874 E9.65094
G1 X163.648 Y63.275 E9.69109
G1 X163.935 Y62.971 E9.71293
G1 X164.052 Y62.854 E9.72158
G1 X164.623 Y62.34 E9.76172
G1 X165.244 Y61.888 E9.80186
G1 X165.909 Y61.503 E9.84201
G1 X166.61 Y61.189 E9.88215
G1 X167.34 Y60.949 E9.9223
G1 X168.091 Y60.787 E9.96245
G1 X168.854 Y60.704 E10.00255
G1 X169.272 Y60.692 E10.0244
G1 X199.038 Y60.692 E11.57979
G1 X199.805 Y60.732 E11.61992
G1 X200.564 Y60.851 E11.66007
G1 X201.306 Y61.049 E11.70019
G1 X202.024 Y61.323 E11.74035
G1 X202.71 Y61.67 E11.78052
G1 X203.355 Y62.086 E11.82063
G1 X203.954 Y62.567 E11.86077
G1 X204.258 Y62.854 E11.88262
G1 X204.375 Y62.971 E11.89126
G1 X204.889 Y63.542 E11.93141
G1 X205.341 Y64.163 E11.97154
G1 X205.726 Y64.828 E12.01169
G1 X206.04 Y65.529 E12.05183
G1 X206.28 Y66.259 E12.09199
G1 X206.442 Y67.01 E12.13213
G1 X206.525 Y67.773 E12.17224
G1 X206.537 Y68.191 E12.19409
G1 X206.537 Y87.957 E13.22693
G1 X206.497 Y88.724 E13.26707
G1 X206.378 Y89.483 E13.30721
G1 X206.18 Y90.225 E13.34734
G1 X205.906 Y90.943 E13.3875
G1 X205.559 Y91.629 E13.42767
G1 X205.143 Y92.274 E13.46778
G1 X204.662 Y92.873 E13.50792
G1 X204.375 Y93.177 E13.52976
G1 X204.258 Y93.294 E13.53841
G1 X203.687 Y93.808 E13.57855
G1 X203.066 Y94.26 E13.61869
G1 X202.401 Y94.645 E13.65884
G1 X201.7 Y94.959 E13.69898
G1 X200.97 Y95.199 E13.73913
G1 X200.219 Y95.361 E13.77928
G1 X199.456 Y95.444 E13.81938
G1 X199.038 Y95.456 E13.84123
G1 X169.272 Y95.456 E15.39662
G1 X168.505 Y95.416 E15.43675
G1 X167.746 Y95.297 E15.4769
G1 X167.004 Y95.099 E15.51703
G1 X166.286 Y94.825 E15.55718
G1 X165.6 Y94.478 E15.59735
G1 X165.382 Y94.337 E15.61092
G1 X164.942 Y94.629 E15.63851
G1 X164.261 Y94.985 E15.67867
G1 X163.547 Y95.268 E15.7188
G1 X162.807 Y95.475 E15.75895
G1 X162.05 Y95.604 E15.79908
G1 X161.283 Y95.654 E15.83924
G1 X160.516 Y95.624 E15.87935
G1 X159.755 Y95.515 E15.91952
G1 X159.011 Y95.327 E15.95962
G1 X158.289 Y95.062 E15.99981
G1 X157.6 Y94.724 E16.03991
G1 X156.949 Y94.316 E16.08006
G1 X156.343 Y93.843 E16.12023
G1 X155.968 Y93.493 E16.14703
G1 X155.735 Y93.26 E16.16425
G1 X155.221 Y92.689 E16.20439
G1 X154.769 Y92.068 E16.24453
G1 X154.384 Y91.403 E16.28468
G1 X154.07 Y90.702 E16.32482
G1 X153.83 Y89.972 E16.36497
G1 X153.668 Y89.221 E16.40512
G1 X153.585 Y88.458 E16.44522
G1 X153.573 Y88.04 E16.46707
G1 X153.573 Y85.108 E16.62028
G1 X153.613 Y84.341 E16.66041
G1 X153.732 Y83.582 E16.70056
G1 X153.93 Y82.84 E16.74069
G1 X154.204 Y82.122 E16.78085
G1 X154.551 Y81.436 E16.82102
G0 F3000 X154.949 Y81.546
G1 F1800 X155.364 Y80.925 E16.86005
G1 X156.017 Y80.17 E16.91221
G1 X156.237 Y79.95 E16.92846
G1 X156.793 Y79.451 E16.9675
G1 X157.399 Y79.014 E17.00654
G1 X158.048 Y78.644 E17.04558
G1 X158.733 Y78.346 E17.08461
G1 X159.446 Y78.122 E17.12367
G1 X160.179 Y77.976 E17.16272
G1 X160.923 Y77.91 E17.20175
G1 X161.67 Y77.923 E17.24079
G1 X162.172 Y77.985 E17.26722
G1 X162.172 Y68.191 E17.77899
G1 X162.212 Y67.445 E17.81803
G1 X162.331 Y66.707 E17.85709
G1 X162.529 Y65.987 E17.89611
G1 X162.802 Y65.291 E17.93518
G1 X163.149 Y64.629 E17.97423
G1 X163.564 Y64.008 E18.01326
G1 X164.217 Y63.253 E18.06542
G1 X164.334 Y63.136 E18.07407
G1 X164.89 Y62.637 E18.11311
G1 X165.496 Y62.2 E18.15215
G1 X166.145 Y61.83 E18.19118
G1 X166.83 Y61.532 E18.23022
G1 X167.543 Y61.308 E18.26927
G1 X168.276 Y61.162 E18.30832
G1 X169.272 Y61.091 E18.3605
G1 X199.038 Y61.091 E19.91589
G1 X199.784 Y61.131 E19.95492
G1 X200.522 Y61.25 E19.99398
G1 X201.242 Y61.448 E20.033
G1 X201.938 Y61.721 E20.07207
G1 X202.6 Y62.068 E20.11113
G1 X203.221 Y62.483 E20.15016
G1 X203.976 Y63.136 E20.20232
G1 X204.093 Y63.253 E20.21096
G1 X204.592 Y63.809 E20.25
G1 X205.029 Y64.415 E20.28904
G1 X205.399 Y65.064 E20.32808
G1 X205.697 Y65.749 E20.36711
G1 X205.921 Y66.462 E20.40616
G1 X206.067 Y67.195 E20.44522
G1 X206.138 Y68.191 E20.49739
G1 X206.138 Y87.957 E21.53024
G1 X206.098 Y88.703 E21.56928
G1 X205.979 Y89.441 E21.60834
G1 X205.781 Y90.161 E21.64736
G1 X205.508 Y90.857 E21.68643
G1 X205.161 Y91.519 E21.72548
G1 X204.746 Y92.14 E21.76451
G1 X204.093 Y92.895 E21.81667
G1 X203.976 Y93.012 E21.82532
G1 X203.42 Y93.511 E21.86436
G1 X202.814 Y93.948 E21.9034
G1 X202.165 Y94.318 E21.94243
G1 X201.48 Y94.616 E21.98147
G1 X200.767 Y94.84 E22.02052
G1 X200.034 Y94.986 E22.05957
G1 X199.038 Y95.057 E22.11175
G1 X169.272 Y95.057 E23.66714
G1 X168.526 Y95.017 E23.70617
G1 X167.788 Y94.898 E23.74523
G1 X167.068 Y94.7 E23.78425
G1 X166.372 Y94.427 E23.82332
G1 X165.71 Y94.08 E23.86238
G1 X165.371 Y93.854 E23.88367
G1 X165.195 Y93.992 E23.89535
G1 X164.561 Y94.387 E23.93439
G1 X163.889 Y94.713 E23.97341
G1 X163.185 Y94.964 E24.01247
G1 X162.459 Y95.139 E24.05149
G1 X161.718 Y95.236 E24.09054
G1 X160.971 Y95.253 E24.12959
G1 X160.227 Y95.189 E24.16861
G1 X159.493 Y95.047 E24.20767
G1 X158.779 Y94.827 E24.24671
G1 X158.093 Y94.532 E24.28573
G1 X157.441 Y94.166 E24.3248
G1 X156.833 Y93.732 E24.36384
G1 X156.25 Y93.211 E24.40469
G1 X156.017 Y92.978 E24.42191
G1 X155.518 Y92.422 E24.46095
G1 X155.081 Y91.816 E24.49999
G1 X154.711 Y91.167 E24.53902
G1 X154.413 Y90.482 E24.57806
G1 X154.189 Y89.769 E24.61711
G1 X154.043 Y89.036 E24.65617
G1 X153.972 Y88.04 E24.70834
G1 X153.972 Y85.108 E24.86155
G1 X154.012 Y84.362 E24.90059
G1 X154.131 Y83.624 E24.93965
G1 X154.329 Y82.904 E24.97867
G1 X154.602 Y82.208 E25.01773
G1 X154.949 Y81.546 E25.05679
G0 F3000 X155.346 Y81.66
G1 F1800 X155.76 Y81.064 E25.09471
G1 X156.299 Y80.452 E25.13732
G1 X156.519 Y80.232 E25.15358
G1 X157.06 Y79.748 E25.19151
G1 X157.65 Y79.327 E25.22939
G1 X158.284 Y78.973 E25.26733
G1 X158.952 Y78.691 E25.30522
G1 X159.647 Y78.484 E25.34311
G1 X160.361 Y78.354 E25.38103
G1 X161.085 Y78.305 E25.41895
G1 X161.81 Y78.335 E25.45687
G1 X162.527 Y78.444 E25.49476
G1 X162.571 Y78.456 E25.49715
G1 X162.571 Y68.191 E26.03353
G1 X162.611 Y67.467 E26.07142
G1 X162.73 Y66.751 E26.10935
G1 X162.928 Y66.053 E26.14726
G1 X163.201 Y65.381 E26.18516
G1 X163.546 Y64.743 E26.22306
G1 X163.96 Y64.147 E26.26098
G1 X164.499 Y63.535 E26.3036
G1 X164.616 Y63.418 E26.31224
G1 X165.157 Y62.934 E26.35017
G1 X165.747 Y62.513 E26.38805
G1 X166.381 Y62.159 E26.42599
G1 X167.049 Y61.877 E26.46388
G1 X167.744 Y61.67 E26.50177
G1 X168.458 Y61.54 E26.53969
G1 X169.272 Y61.49 E26.58231
G1 X199.038 Y61.49 E28.13769
G1 X199.762 Y61.53 E28.17558
G1 X200.478 Y61.649 E28.21351
G1 X201.176 Y61.847 E28.25142
G1 X201.848 Y62.12 E28.28932
G1 X202.486 Y62.465 E28.32722
G1 X203.082 Y62.879 E28.36514
G1 X203.694 Y63.418 E28.40776
G1 X203.811 Y63.535 E28.4164
G1 X204.295 Y64.076 E28.45433
G1 X204.716 Y64.666 E28.49221
G1 X205.07 Y65.3 E28.53015
G1 X205.352 Y65.968 E28.56804
G1 X205.559 Y66.663 E28.60593
G1 X205.689 Y67.377 E28.64386
G1 X205.739 Y68.191 E28.68647
G1 X205.739 Y87.957 E29.71932
G1 X205.699 Y88.681 E29.75721
G1 X205.58 Y89.397 E29.79513
G1 X205.382 Y90.095 E29.83305
G1 X205.109 Y90.767 E29.87095
G1 X204.764 Y91.405 E29.90885
G1 X204.35 Y92.001 E29.94677
G1 X203.811 Y92.613 E29.98938
G1 X203.694 Y92.73 E29.99803
G1 X203.153 Y93.214 E30.03596
G1 X202.563 Y93.635 E30.07383
G1 X201.929 Y93.989 E30.11178
G1 X201.261 Y94.271 E30.14966
G1 X200.566 Y94.478 E30.18756
G1 X199.852 Y94.608 E30.22548
G1 X199.038 Y94.658 E30.26809
G1 X169.272 Y94.658 E31.82348
G1 X168.548 Y94.618 E31.86137
G1 X167.832 Y94.499 E31.8993
G1 X167.134 Y94.301 E31.93721
G1 X166.462 Y94.028 E31.97511
G1 X165.824 Y93.683 E32.01301
G1 X165.363 Y93.362 E32.04236
G1 X164.81 Y93.771 E32.0783
G1 X164.183 Y94.137 E32.11624
G1 X163.519 Y94.43 E32.15416
G1 X162.828 Y94.65 E32.19206
G1 X162.116 Y94.791 E32.22998
G1 X161.394 Y94.854 E32.26786
G1 X160.668 Y94.836 E32.3058
G1 X159.949 Y94.739 E32.34371
G1 X159.245 Y94.564 E32.38162
G1 X158.565 Y94.312 E32.41951
G1 X157.917 Y93.987 E32.45739
G1 X157.308 Y93.592 E32.49532
G1 X156.532 Y92.929 E32.54866
G1 X156.299 Y92.696 E32.56588
G1 X155.815 Y92.155 E32.60381
G1 X155.394 Y91.565 E32.64168
G1 X155.04 Y90.931 E32.67962
G1 X154.758 Y90.263 E32.71751
G1 X154.551 Y89.568 E32.75541
G1 X154.421 Y88.854 E32.79333
G1 X154.371 Y88.04 E32.83594
G1 X154.371 Y85.108 E32.98915
G1 X154.411 Y84.384 E33.02704
G1 X154.53 Y83.668 E33.06497
G1 X154.728 Y82.97 E33.10288
G1 X155.001 Y82.298 E33.14078
G1 X155.346 Y81.66 E33.17868
G0 F3000 X155.744 Y81.777
G1 F1800 X156.155 Y81.207 E33.2154
G1 X156.582 Y80.735 E33.24866
G1 X156.802 Y80.515 E33.26492
G1 X157.326 Y80.046 E33.30166
G1 X157.901 Y79.641 E33.33841
G1 X158.517 Y79.303 E33.37513
G1 X159.168 Y79.038 E33.41186
G1 X159.845 Y78.848 E33.4486
G1 X160.54 Y78.736 E33.48539
G1 X161.242 Y78.703 E33.52211
G1 X161.943 Y78.751 E33.55882
G1 X162.635 Y78.878 E33.59559
G1 X162.97 Y78.98 E33.61389
G1 X162.97 Y68.191 E34.17765
G1 X163.01 Y67.489 E34.21439
G1 X163.129 Y66.796 E34.25113
G1 X163.327 Y66.121 E34.28789
G1 X163.599 Y65.473 E34.32461
G1 X163.944 Y64.86 E34.36137
G1 X164.355 Y64.29 E34.39809
G1 X164.782 Y63.818 E34.43135
G1 X164.899 Y63.701 E34.44
G1 X165.423 Y63.232 E34.47674
G1 X165.998 Y62.827 E34.51349
G1 X166.614 Y62.489 E34.55021
G1 X167.265 Y62.224 E34.58694
G1 X167.942 Y62.034 E34.62368
G1 X168.637 Y61.922 E34.66046
G1 X169.272 Y61.889 E34.69369
G1 X199.038 Y61.889 E36.24907
G1 X199.74 Y61.929 E36.28582
G1 X200.433 Y62.048 E36.32256
G1 X201.108 Y62.246 E36.35932
G1 X201.756 Y62.518 E36.39604
G1 X202.369 Y62.863 E36.43279
G1 X202.939 Y63.274 E36.46951
G1 X203.411 Y63.701 E36.50277
G1 X203.528 Y63.818 E36.51142
G1 X203.997 Y64.342 E36.54817
G1 X204.402 Y64.917 E36.58492
G1 X204.74 Y65.533 E36.62163
G1 X205.005 Y66.184 E36.65836
G1 X205.195 Y66.861 E36.6951
G1 X205.307 Y67.556 E36.73189
G1 X205.34 Y68.191 E36.76511
G1 X205.34 Y87.957 E37.79796
G1 X205.3 Y88.659 E37.8347
G1 X205.181 Y89.352 E37.87144
G1 X204.983 Y90.027 E37.9082
G1 X204.711 Y90.675 E37.94492
G1 X204.366 Y91.288 E37.98168
G1 X203.955 Y91.858 E38.0184
G1 X203.528 Y92.33 E38.05166
G1 X203.411 Y92.447 E38.0603
G1 X202.887 Y92.916 E38.09705
G1 X202.312 Y93.321 E38.1338
G1 X201.696 Y93.659 E38.17052
G1 X201.045 Y93.924 E38.20724
G1 X200.368 Y94.114 E38.24399
G1 X199.673 Y94.226 E38.28077
G1 X199.038 Y94.259 E38.314
G1 X169.272 Y94.259 E39.86938
G1 X168.57 Y94.219 E39.90612
G1 X167.877 Y94.1 E39.94287
G1 X167.202 Y93.902 E39.97962
G1 X166.554 Y93.63 E40.01635
G1 X165.941 Y93.285 E40.0531
G1 X165.371 Y92.874 E40.08982
G1 X165.339 Y92.845 E40.09208
G1 X165.003 Y93.141 E40.11548
G1 X164.426 Y93.543 E40.15222
G1 X163.807 Y93.876 E40.18895
G1 X163.154 Y94.137 E40.2257
G1 X162.475 Y94.323 E40.26249
G1 X161.781 Y94.43 E40.29918
G1 X161.078 Y94.457 E40.33594
G1 X160.377 Y94.405 E40.37267
G1 X159.686 Y94.273 E40.40943
G1 X159.015 Y94.064 E40.44615
G1 X158.372 Y93.78 E40.48289
G1 X157.765 Y93.424 E40.51966
G1 X157.202 Y93.002 E40.55642
G1 X156.815 Y92.646 E40.5839
G1 X156.582 Y92.413 E40.60112
G1 X156.113 Y91.889 E40.63786
G1 X155.708 Y91.314 E40.67461
G1 X155.37 Y90.698 E40.71133
G1 X155.105 Y90.047 E40.74806
G1 X154.915 Y89.37 E40.7848
G1 X154.803 Y88.675 E40.82158
G1 X154.77 Y88.04 E40.85481
G1 X154.77 Y85.108 E41.00802
G1 X154.81 Y84.406 E41.04476
G1 X154.929 Y83.713 E41.0815
G1 X155.127 Y83.038 E41.11826
G1 X155.399 Y82.39 E41.15498
G1 X155.744 Y81.777 E41.19174
G0 F3000 X156.141 Y81.898
G1 F1800 X156.551 Y81.356 E41.22725
G1 X156.864 Y81.017 E41.25136
G1 X157.084 Y80.797 E41.26762
G1 X157.592 Y80.345 E41.30315
G1 X158.15 Y79.956 E41.33869
G1 X158.749 Y79.635 E41.3742
G1 X159.382 Y79.387 E41.40973
G1 X160.04 Y79.214 E41.44528
G1 X160.714 Y79.12 E41.48084
G1 X161.394 Y79.106 E41.51638
G1 X162.071 Y79.172 E41.55192
G1 X162.735 Y79.316 E41.58743
G1 X163.369 Y79.535 E41.62248
G1 X163.369 Y68.191 E42.21524
G1 X163.409 Y67.512 E42.25078
G1 X163.528 Y66.843 E42.28629
G1 X163.725 Y66.192 E42.32183
