;Generated with Cura_SteamEngine 19.05.04
;Cura19.05.04-Neutro64
M190 S50.000000
M140 S70.000000
M109 S200.000000
;Sliced at: Mon 26-10-2020 18:43:15
;Basic settings: Layer height: 0.1 Walls: 0.8 Fill: 100
;Print time: 24 minutes
;Filament used: 0.448m 1.0g
;Filament cost: None
;M190 S70 ;Uncomment to add your own bed temperature line
;M109 S200 ;Uncomment to add your own temperature line
G21              ;metric values
G90              ;absolute positioning
M82              ;set extruder to absolute mode
M107             ;start with the fan off
G28 X0 Y0        ;move X/Y to min endstops
G28 Z0           ;move Z to min endstops
G1 Z1.50 F4800 ;move the platform down 1.5mm
G92 E0 B0                       ;zero the extruded length
G1 F200 E8 B2                   ;extrude 8mm of feed stock
G92 E0 B0                       ;zero the extruded length again
G1 F4800
;Put printing message on LCD screen
M117 Printing...

M305 S1 $57 	;check Command 
;Layer count: 138
;LAYER:0
M106 S255 $59
G0 F4800 X149.172 Y164.840 Z0.300 E 22.18280 B0.00000 $88
G92 E0 B0 $75
G92 E0.5 B0.5 $75
G92 E0 B0 $75
;TYPE:SKIRT
G1 F1200 X149.988 Y164.224 E0.05611 $88
G1 X151.091 Y163.740 E0.12221 $52
G1 X152.088 Y163.554 E0.17787 $52
G1 X162.259 Y163.550 E0.73605 $52
G1 X163.338 Y163.582 E0.79529 $59
G1 X164.441 Y163.891 E0.85815 $59
G1 X165.503 Y164.481 E0.92482 $51
G1 X166.259 Y165.171 E0.98099 $55
G1 X166.875 Y165.987 E1.03710 $55
G1 X167.359 Y167.090 E1.10320 $59
G1 X167.545 Y168.087 E1.15886 $59
G1 X167.550 Y178.657 E1.73894 $54
G1 X167.427 Y179.789 E1.80143 $59
G1 X167.036 Y180.801 E1.86096 $57
G1 X166.475 Y181.687 E1.91852 $60
G1 X165.573 Y182.580 E1.98817 $55
G1 X164.362 Y183.250 E2.06412 $54
G1 X163.104 Y183.545 E2.13503 $53
G1 X153.108 Y183.550 E2.68361 $48
G1 X152.344 Y183.550 E2.72554 $48
G1 X151.483 Y183.461 E2.77304 $58
G1 X150.251 Y183.033 E2.84461 $57
G1 X149.124 Y182.240 E2.92024 $53
G1 X148.322 Y181.266 E2.98948 $62
G1 X147.829 Y180.274 E3.05027 $54
G1 X147.555 Y179.102 E3.11632 $51
G1 X147.550 Y168.737 E3.68515 $62
G1 X147.594 Y167.720 E3.74101 $51
G1 X147.893 Y166.655 E3.80172 $52
G1 X148.482 Y165.596 E3.86822 $50
G1 X149.172 Y164.840 E3.92439 $61
G0 F4800 X149.442 Y165.137 $21
G1 F1200 X150.191 Y164.572 E3.97588 $95
G1 X151.209 Y164.125 E4.03689 $55
G1 X152.125 Y163.954 E4.08803 $55
G1 X162.253 Y163.950 E4.64385 $61
G1 X163.277 Y163.981 E4.70007 $58
G1 X164.288 Y164.263 E4.75767 $57
G1 X165.268 Y164.808 E4.81921 $54
G1 X165.962 Y165.441 E4.87076 $58
G1 X166.527 Y166.190 E4.92225 $62
G1 X166.974 Y167.208 E4.98326 $63
G1 X167.145 Y168.124 E5.03440 $50
G1 X167.150 Y178.635 E5.61124 $51
G1 X167.035 Y179.694 E5.66970 $53
G1 X166.677 Y180.621 E5.72423 $50
G1 X166.162 Y181.434 E5.77705 $52
G1 X165.331 Y182.257 E5.84123 $61
G1 X164.217 Y182.873 E5.91109 $57
G1 X163.058 Y183.145 E5.97642 $52
G1 X153.108 Y183.150 E6.52247 $60
G1 X152.365 Y183.150 E6.56325 $53
G1 X151.570 Y183.068 E6.60711 $56
G1 X150.436 Y182.674 E6.67299 $50
G1 X149.398 Y181.944 E6.74263 $49
G1 X148.659 Y181.047 E6.80641 $61
G1 X148.207 Y180.138 E6.86212 $62
G1 X147.955 Y179.056 E6.92309 $60
G1 X147.950 Y168.746 E7.48890 $50
G1 X147.991 Y167.784 E7.54174 $48
G1 X148.266 Y166.808 E7.59739 $52
G1 X148.809 Y165.831 E7.65873 $48
G1 X149.442 Y165.137 E7.71028 $62
G0 F4800 X149.713 Y165.434 $20
G1 F1200 X150.395 Y164.919 E7.75718 $91
G1 X151.328 Y164.510 E7.81308 $50
G1 X152.162 Y164.354 E7.85965 $62
G1 X162.248 Y164.350 E8.41316 $59
G1 X163.217 Y164.379 E8.46636 $59
G1 X164.135 Y164.636 E8.51868 $50
G1 X165.033 Y165.135 E8.57506 $50
G1 X165.665 Y165.712 E8.62202 $49
G1 X166.180 Y166.394 E8.66892 $48
G1 X166.589 Y167.327 E8.72483 $61
G1 X166.745 Y168.161 E8.77139 $49
G1 X166.750 Y178.614 E9.34504 $61
G1 X166.643 Y179.598 E9.39936 $56
G1 X166.318 Y180.440 E9.44889 $62
G1 X165.848 Y181.182 E9.49709 $51
G1 X165.089 Y181.934 E9.55573 $49
G1 X164.072 Y182.496 E9.61950 $56
G1 X163.012 Y182.745 E9.67925 $48
G1 X153.108 Y182.750 E10.22278 $7
G1 X152.385 Y182.750 E10.26245 $11
G1 X151.658 Y182.675 E10.30256 $14
G1 X150.620 Y182.315 E10.36286 $8
G1 X149.673 Y181.648 E10.42642 $7
G1 X148.997 Y180.828 E10.48475 $6
G1 X148.586 Y180.001 E10.53543 $7
G1 X148.355 Y179.010 E10.59127 $5
G1 X148.350 Y168.754 E11.15411 $14
G1 X148.389 Y167.847 E11.20393 $3
G1 X148.638 Y166.961 E11.25444 $0
G1 X149.136 Y166.066 E11.31065 $4
G1 X149.713 Y165.434 E11.35761 $2
G1 F2400 E10.35761 $106
G0 F4800 X156.193 Y172.033 $17
;TYPE:WALL-INNER0
G1 F2400 E11.35761 B0 $57
G1 F1200 X156.565 Y171.768 E11.38268 $100
G1 X156.996 Y171.590 E11.40827 $10
G1 X157.448 Y171.517 E11.43339 $13
G1 X157.773 Y171.527 E11.45124 $13
G1 X157.948 Y171.555 E11.46097 $4
G1 X158.234 Y171.634 E11.47725 $0
G1 X158.635 Y171.828 E11.50169 $14
G1 X158.900 Y172.028 E11.51991 $2
G1 X159.199 Y172.358 E11.54435 $9
G1 X159.372 Y172.642 E11.56260 $4
G1 X159.528 Y173.071 E11.58765 $4
G1 X159.586 Y173.526 E11.61283 $0
G1 X159.560 Y173.858 E11.63110 $7
G1 X159.493 Y174.150 E11.64754 $13
G1 X159.378 Y174.439 E11.66461 $2
G1 X159.227 Y174.699 E11.68111 $13
G1 X158.907 Y175.066 E11.70784 $1
G1 X158.535 Y175.331 E11.73290 $14
G1 X158.104 Y175.509 E11.75849 $13
G1 X157.652 Y175.582 E11.78362 $10
G1 X157.327 Y175.572 E11.80146 $1
G1 X157.152 Y175.544 E11.81119 $15
G1 X156.866 Y175.465 E11.82747 $12
G1 X156.465 Y175.271 E11.85192 $9
G1 X156.200 Y175.071 E11.87014 $3
G1 X155.901 Y174.741 E11.89458 $13
G1 X155.728 Y174.457 E11.91283 $5
G1 X155.572 Y174.028 E11.93788 $8
G1 X155.516 Y173.584 E11.96244 $14
G1 X155.524 Y173.384 E11.97342 $15
G1 X155.569 Y173.089 E11.98980 $3
G1 X155.716 Y172.669 E12.01422 $6
G1 X155.873 Y172.400 E12.03131 $2
G1 X156.193 Y172.033 E12.05803 $12
G0 F4800 X152.083 Y168.845 $23
G1 F1200 X152.100 Y168.438 E12.08039 $111
G1 X152.113 Y168.395 E12.08285 $13
G1 X152.187 Y168.261 E12.09125 $2
G1 X152.239 Y168.204 E12.09549 $9
G1 X152.294 Y168.162 E12.09929 $7
G1 X152.434 Y168.101 E12.10767 $2
G1 X152.509 Y168.087 E12.11185 $9
G1 X162.184 Y168.083 E12.64281 $10
G1 X162.653 Y168.097 E12.66856 $0
G1 X162.704 Y168.111 E12.67146 $5
G1 X162.838 Y168.186 E12.67989 $0
G1 X162.937 Y168.293 E12.68789 $8
G1 X162.998 Y168.433 E12.69627 $5
G1 X163.012 Y168.508 E12.70046 $15
G1 X163.017 Y178.411 E13.24393 $9
G1 X162.985 Y178.709 E13.26037 $15
G1 X162.968 Y178.754 E13.26301 $2
G1 X162.923 Y178.825 E13.26763 $4
G1 X162.828 Y178.919 E13.27496 $8
G1 X162.718 Y178.979 E13.28184 $11
G1 X162.579 Y179.012 E13.28968 $1
G1 X152.576 Y179.017 E13.83864 $4
G1 X152.471 Y179.006 E13.84443 $12
G1 X152.342 Y178.961 E13.85193 $11
G1 X152.232 Y178.884 E13.85930 $6
G1 X152.150 Y178.784 E13.86639 $11
G1 X152.123 Y178.731 E13.86966 $4
G1 X152.088 Y178.580 E13.87816 $11
G1 X152.083 Y168.845 E14.41241 $0
G0 F4800 X151.683 Y168.828 $25
;TYPE:WALL-OUTER
G1 F1200 X151.702 Y168.376 E14.43724 $103
G1 X151.741 Y168.240 E14.44500 $2
G1 X151.859 Y168.027 E14.45837 $15
G1 X151.968 Y167.908 E14.46722 $15
G1 X152.091 Y167.815 E14.47569 $2
G1 X152.316 Y167.716 E14.48918 $7
G1 X152.472 Y167.687 E14.49788 $13
G1 X162.196 Y167.683 E15.03153 $10
G1 X162.711 Y167.699 E15.05981 $9
G1 X162.859 Y167.740 E15.06823 $5
G1 X163.072 Y167.858 E15.08160 $3
G1 X163.191 Y167.967 E15.09045 $5
G1 X163.284 Y168.090 E15.09892 $14
G1 X163.383 Y168.315 E15.11241 $11
G1 X163.412 Y168.471 E15.12111 $4
G1 X163.417 Y178.436 E15.66799 $6
G1 X163.377 Y178.804 E15.68830 $8
G1 X163.326 Y178.936 E15.69607 $7
G1 X163.237 Y179.075 E15.70512 $6
G1 X163.068 Y179.243 E15.71820 $4
G1 X162.862 Y179.357 E15.73112 $9
G1 X162.628 Y179.412 E15.74431 $12
G1 X152.554 Y179.417 E16.29717 $14
G1 X152.388 Y179.400 E16.30633 $0
G1 X152.155 Y179.319 E16.31986 $13
G1 X151.960 Y179.181 E16.33297 $10
G1 X151.811 Y179.000 E16.34584 $7
G1 X151.745 Y178.868 E16.35394 $8
G1 X151.688 Y178.624 E16.36769 $11
G1 X151.683 Y168.828 E16.90529 $9
G0 F4800 X152.050 Y168.833 $24
G0 X155.994 Y172.296 $122
G0 X156.285 Y172.518 $115
G1 F1200 X156.457 Y172.336 E16.91903 $106
G1 X156.760 Y172.120 E16.93945 $13
G1 X157.105 Y171.977 E16.95995 $11
G1 X157.474 Y171.918 E16.98045 $8
G1 X157.735 Y171.926 E16.99478 $8
G1 X158.093 Y172.010 E17.01496 $3
G1 X158.426 Y172.171 E17.03526 $7
G1 X158.629 Y172.324 E17.04921 $4
G1 X158.877 Y172.598 E17.06949 $12
G1 X159.009 Y172.816 E17.08348 $2
G1 X159.137 Y173.165 E17.10388 $7
G1 X159.184 Y173.536 E17.12440 $12
G1 X159.164 Y173.798 E17.13882 $7
G1 X159.110 Y174.031 E17.15195 $14
G1 X159.018 Y174.264 E17.16570 $9
G1 X158.893 Y174.477 E17.17925 $10
G1 X158.815 Y174.581 E17.18638 $0
G1 X158.643 Y174.763 E17.20013 $7
G1 X158.340 Y174.979 E17.22055 $4
G1 X157.995 Y175.122 E17.24104 $13
G1 X157.626 Y175.181 E17.26155 $5
G1 X157.365 Y175.173 E17.27588 $15
G1 X157.007 Y175.089 E17.29606 $7
G1 X156.674 Y174.928 E17.31636 $13
G1 X156.471 Y174.775 E17.33031 $15
G1 X156.223 Y174.501 E17.35059 $7
G1 X156.091 Y174.283 E17.36458 $7
G1 X155.963 Y173.934 E17.38498 $2
G1 X155.917 Y173.567 E17.40528 $14
G1 X155.922 Y173.422 E17.41324 $3
G1 X155.958 Y173.187 E17.42629 $15
G1 X156.081 Y172.838 E17.44659 $12
G1 X156.207 Y172.622 E17.46032 $12
G1 X156.285 Y172.518 E17.46745 $11
G0 F4800 X155.994 Y172.296 $16
G0 X152.287 Y178.111 $114
;TYPE:SKIN
G1 F900 X152.992 Y178.815 E17.52213 $84
G0 F4800 X153.614 Y178.815 $26
G1 F900 X152.287 Y177.488 E17.62512 $89
G0 F4800 X152.286 Y176.865 $29
G1 F900 X154.236 Y178.815 E17.77646 $84
G0 F4800 X154.858 Y178.815 $27
G1 F900 X152.286 Y176.243 E17.97607 $85
G0 F4800 X152.286 Y175.620 $17
G1 F900 X155.480 Y178.814 E18.22396 $88
G0 F4800 X156.102 Y178.814 $30
G1 F900 X152.286 Y174.998 E18.52013 $95
G0 F4800 X152.285 Y174.375 $22
G1 F900 X156.724 Y178.814 E18.86464 $82
G0 F4800 X157.346 Y178.813 $26
G1 F900 X152.285 Y173.753 E19.25739 $92
G0 F4800 X152.285 Y173.130 $18
G1 F900 X157.968 Y178.813 E19.69846 $94
G0 F4800 X158.589 Y178.813 $16
G1 F900 X152.284 Y172.507 E20.18783 $90
G0 F4800 X152.284 Y171.885 $22
G1 F900 X159.212 Y178.813 E20.72552 $94
G0 F4800 X159.833 Y178.812 $28
G1 F900 X156.559 Y175.538 E20.97962 $84
G0 F4800 X157.418 Y175.775 $20
G1 F900 X160.455 Y178.812 E21.21532 $81
G0 F4800 X161.078 Y178.812 $16
G1 F900 X157.994 Y175.728 E21.45467 $93
G0 F4800 X158.464 Y175.576 $17
G1 F900 X161.699 Y178.811 E21.70575 $86
G0 F4800 X162.322 Y178.811 $28
G1 F900 X158.857 Y175.346 E21.97467 $95
G0 F4800 X159.183 Y175.051 $28
G1 F900 X162.790 Y178.657 E22.25457 $83
G0 F4800 X162.816 Y178.062 $28
G1 F900 X159.456 Y174.701 E22.51538 $87
G0 F4800 X159.656 Y174.279 $26
G1 F900 X162.816 Y177.439 E22.76063 $82
G0 F4800 X162.816 Y176.817 $24
G1 F900 X159.767 Y173.767 E22.99731 $94
G0 F4800 X159.735 Y173.113 $22
G1 F900 X162.816 Y176.194 E23.23643 $84
G0 F4800 X162.815 Y175.571 $21
G1 F900 X155.528 Y168.285 E23.80194 $88
G0 F4800 X154.906 Y168.285 $19
G1 F900 X157.976 Y171.355 E24.04021 $93
G0 F4800 X157.331 Y171.332 $27
G1 F900 X154.285 Y168.285 E24.27665 $90
G0 F4800 X153.662 Y168.285 $25
G1 F900 X156.821 Y171.444 E24.52182 $83
G0 F4800 X156.396 Y171.641 $22
G1 F900 X153.040 Y168.285 E24.78228 $81
G0 F4800 X152.445 Y168.313 $17
G1 F900 X156.039 Y171.906 E25.06118 $90
G0 F4800 X155.749 Y172.239 $27
G1 F900 X152.286 Y168.775 E25.32998 $93
G0 F4800 X152.283 Y169.395 $18
G1 F900 X155.518 Y172.630 E25.58105 $81
G0 F4800 X155.365 Y173.099 $24
G1 F900 X152.283 Y170.017 E25.82025 $86
G0 F4800 X152.283 Y170.640 $23
G1 F900 X155.327 Y173.683 E26.05646 $89
G0 F4800 X155.538 Y174.516 $19
G1 F900 X152.283 Y171.262 E26.30904 $87
G0 F4800 X156.151 Y168.285 $27
G1 F900 X162.815 Y174.949 E26.82624 $82
G0 F4800 X162.815 Y174.327 $17
G1 F900 X156.772 Y168.284 E27.29525 $94
G0 F4800 X157.394 Y168.284 $16
G1 F900 X162.814 Y173.704 E27.71590 $82
G0 F4800 X162.814 Y173.082 $27
G1 F900 X158.017 Y168.284 E28.08824 $84
G0 F4800 X158.638 Y168.283 $27
G1 F900 X162.814 Y172.459 E28.41234 $93
G0 F4800 X162.814 Y171.836 $30
G1 F900 X159.260 Y168.283 E28.68813 $82
G0 F4800 X159.883 Y168.283 $20
G1 F900 X162.813 Y171.213 E28.91553 $90
G0 F4800 X162.813 Y170.591 $24
G1 F900 X160.504 Y168.282 E29.09473 $80
G0 F4800 X161.127 Y168.282 $25
G1 F900 X162.813 Y169.969 E29.22563 $95
G0 F4800 X162.812 Y169.346 $29
G1 F900 X161.749 Y168.282 E29.30816 $95
G0 F4800 X162.377 Y168.288 $23
G1 F900 X162.812 Y168.724 E29.34196 $81
;LAYER:1
G0 F4800 X158.995 Y172.117 Z0.400 $70
;TYPE:WALL-INNER0
G1 F1800 X159.211 Y172.377 E29.34759 $108
G1 X159.364 Y172.628 E29.35247 $4
G1 X159.480 Y172.908 E29.35751 $6
G1 X159.530 Y173.087 E29.36060 $5
G1 X159.586 Y173.519 E29.36785 $6
G1 X159.561 Y173.858 E29.37350 $10
G1 X159.497 Y174.136 E29.37825 $13
G1 X159.439 Y174.300 E29.38114 $10
G1 X159.308 Y174.571 E29.38614 $8
G1 X159.121 Y174.843 E29.39163 $11
G1 X158.916 Y175.054 E29.39653 $13
G1 X158.666 Y175.252 E29.40183 $5
G1 X158.258 Y175.458 E29.40943 $4
G1 X157.813 Y175.568 E29.41705 $1
G1 X157.474 Y175.582 E29.42270 $12
G1 X157.154 Y175.546 E29.42805 $11
G1 X156.746 Y175.418 E29.43516 $11
G1 X156.453 Y175.264 E29.44067 $5
G1 X156.105 Y174.982 E29.44812 $11
G1 X155.889 Y174.722 E29.45374 $11
G1 X155.736 Y174.471 E29.45863 $8
G1 X155.620 Y174.191 E29.46367 $9
G1 X155.570 Y174.012 E29.46676 $0
G1 X155.514 Y173.580 E29.47400 $9
G1 X155.540 Y173.231 E29.47982 $2
G1 X155.653 Y172.817 E29.48696 $9
G1 X155.792 Y172.528 E29.49229 $5
G1 X155.979 Y172.256 E29.49778 $1
G1 X156.184 Y172.045 E29.50267 $11
G1 X156.434 Y171.847 E29.50798 $9
G1 X156.842 Y171.641 E29.51558 $3
G1 X157.287 Y171.531 E29.52320 $15
G1 X157.626 Y171.517 E29.52884 $1
G1 X157.946 Y171.553 E29.53420 $11
G1 X158.354 Y171.681 E29.54131 $3
G1 X158.647 Y171.835 E29.54681 $9
G1 X158.995 Y172.117 E29.55426 $13
G0 F4800 X162.522 Y168.083 $24
G1 F1800 X162.698 Y168.110 E29.55722 $98
G1 X162.758 Y168.133 E29.55829 $5
G1 X162.827 Y168.176 E29.55964 $11
G1 X162.893 Y168.236 E29.56113 $8
G1 X162.937 Y168.294 E29.56234 $9
G1 X162.998 Y168.432 E29.56485 $10
G1 X163.012 Y168.508 E29.56613 $5
G1 X163.017 Y178.381 E29.73032 $4
G1 X163.001 Y178.644 E29.73470 $13
G1 X162.952 Y178.781 E29.73712 $12
G1 X162.923 Y178.827 E29.73803 $6
G1 X162.871 Y178.884 E29.73931 $9
G1 X162.756 Y178.963 E29.74163 $3
G1 X162.645 Y178.999 E29.74357 $0
G1 X153.329 Y179.017 E29.89850 $13
G1 X152.591 Y179.017 E29.91077 $13
G1 X152.401 Y178.988 E29.91397 $6
G1 X152.357 Y178.971 E29.91475 $15
G1 X152.192 Y178.844 E29.91821 $14
G1 X152.123 Y178.728 E29.92046 $11
G1 X152.088 Y178.579 E29.92300 $12
G1 X152.083 Y168.947 E30.08318 $5
G1 X152.098 Y168.450 E30.09145 $15
G1 X152.120 Y168.375 E30.09275 $13
G1 X152.168 Y168.281 E30.09451 $11
G1 X152.240 Y168.203 E30.09627 $11
G1 X152.295 Y168.162 E30.09741 $6
G1 X152.433 Y168.101 E30.09992 $9
G1 X152.509 Y168.087 E30.10121 $6
G1 X162.522 Y168.083 E30.26772 $13
G0 F4800 X162.557 Y167.683 $19
;TYPE:WALL-OUTER
G1 F1320 X162.800 Y167.720 E30.27181 $108
G1 X162.935 Y167.773 E30.27422 $7
G1 X163.070 Y167.856 E30.27686 $10
G1 X163.191 Y167.967 E30.27959 $10
G1 X163.284 Y168.090 E30.28215 $15
G1 X163.382 Y168.315 E30.28624 $0
G1 X163.412 Y168.472 E30.28889 $1
G1 X163.417 Y178.390 E30.45383 $4
G1 X163.396 Y178.726 E30.45943 $5
G1 X163.315 Y178.955 E30.46347 $9
G1 X163.243 Y179.070 E30.46573 $5
G1 X163.135 Y179.188 E30.46839 $2
G1 X162.934 Y179.325 E30.47243 $9
G1 X162.710 Y179.399 E30.47635 $3
G1 X152.557 Y179.417 E30.64520 $6
G1 X152.297 Y179.377 E30.64957 $0
G1 X152.159 Y179.322 E30.65204 $13
G1 X151.905 Y179.127 E30.65737 $13
G1 X151.814 Y179.006 E30.65989 $5
G1 X151.745 Y178.867 E30.66247 $10
G1 X151.688 Y178.623 E30.66664 $1
G1 X151.683 Y168.935 E30.82775 $8
G1 X151.699 Y168.390 E30.83682 $14
G1 X151.749 Y168.222 E30.83973 $11
G1 X151.856 Y168.030 E30.84339 $8
G1 X151.968 Y167.908 E30.84614 $3
G1 X152.091 Y167.815 E30.84870 $14
G1 X152.316 Y167.717 E30.85279 $13
